;Generated with Cura_SteamEngine 14.12
; Default start code
G28 ; Home extruder
G1 Y50. F1200
G1 Z1.5 F500
G1 X50. F1200
G1 Z1.0 F120
M107 ; Turn off fan
G90 ; Absolute positioning
M82 ; Extruder in absolute mode
;   Bed temp
;   M190 Sxx --> set & wait
;   M140 Sxx --> set & continue
M190 S99
M140 S100
;    Extruder
;    M109 Sxx --> set & wait
;    M104 Sxx --> set & continue
M104 T0 S210
G92 E0 ; Reset extruder position
; Wait for all used extruders to reach temperature
M109 T0 S210
;Layer count: 58
;LAYER:0
M107
G0 F5340 X56.074 Y17.571 Z0.130
G0 X56.274 Y17.371
;TYPE:SKIRT
G1 F2340 X56.274 Y16.971 E0.00713
G1 X56.474 Y16.771 E0.01218
G1 X56.474 Y16.371 E0.01931
G1 X56.674 Y16.171 E0.02436
G1 X56.674 Y15.571 E0.03506
G1 X56.874 Y15.371 E0.04010
G1 X56.874 Y15.171 E0.04367
G1 X58.876 Y13.170 E0.09416
G1 X60.234 Y12.487 E0.12127
G1 X61.926 Y12.066 E0.15237
G1 X66.349 Y12.066 E0.23125
G1 X68.422 Y12.757 E0.27023
G1 X70.030 Y13.564 E0.30232
G1 X70.236 Y13.767 E0.30747
G1 X70.644 Y13.974 E0.31563
G1 X71.038 Y14.367 E0.32556
G1 X71.445 Y14.571 E0.33368
G1 X73.644 Y16.772 E0.38917
G1 X73.644 Y16.971 E0.39272
G1 X74.844 Y18.172 E0.42300
G1 X74.844 Y18.372 E0.42657
G1 X75.444 Y18.973 E0.44172
G1 X75.444 Y19.173 E0.44528
G1 X75.844 Y19.574 E0.45539
G1 X75.844 Y19.773 E0.45893
G1 X76.244 Y20.174 E0.46904
G1 X76.244 Y20.373 E0.47259
G1 X76.644 Y20.774 E0.48269
G1 X76.644 Y20.971 E0.48620
G1 X76.844 Y21.171 E0.49125
G1 X76.844 Y21.371 E0.49481
G1 X77.044 Y21.571 E0.49986
G1 X77.044 Y21.773 E0.50346
G1 X77.444 Y22.174 E0.51356
G1 X77.444 Y22.373 E0.51711
G1 X77.844 Y22.774 E0.52721
G1 X77.844 Y22.973 E0.53076
G1 X78.244 Y23.374 E0.54087
G1 X78.244 Y23.572 E0.54440
G1 X78.844 Y24.173 E0.55954
G1 X78.844 Y24.371 E0.56308
G1 X79.044 Y24.571 E0.56812
G1 X79.044 Y24.771 E0.57169
G1 X79.244 Y24.971 E0.57673
G1 X79.244 Y25.171 E0.58030
G1 X79.444 Y25.371 E0.58534
G1 X79.444 Y25.571 E0.58891
G1 X79.644 Y25.771 E0.59396
G1 X79.644 Y26.172 E0.60111
G1 X80.244 Y26.773 E0.61625
G1 X80.244 Y26.971 E0.61979
G1 X80.444 Y27.171 E0.62483
G1 X80.444 Y27.371 E0.62840
G1 X80.644 Y27.571 E0.63344
G1 X80.644 Y27.771 E0.63701
G1 X80.844 Y27.971 E0.64205
G1 X80.844 Y28.171 E0.64562
G1 X81.044 Y28.371 E0.65067
G1 X81.044 Y28.571 E0.65423
G1 X81.244 Y28.771 E0.65928
G1 X81.244 Y28.971 E0.66285
G1 X81.444 Y29.171 E0.66789
G1 X81.444 Y29.372 E0.67148
G1 X82.044 Y29.973 E0.68662
G1 X82.044 Y30.171 E0.69015
G1 X82.244 Y30.371 E0.69520
G1 X82.244 Y30.571 E0.69877
G1 X82.444 Y30.771 E0.70381
G1 X82.444 Y30.971 E0.70738
G1 X82.644 Y31.171 E0.71242
G1 X82.644 Y31.371 E0.71599
G1 X82.844 Y31.571 E0.72103
G1 X82.844 Y31.971 E0.72817
G1 X83.044 Y32.171 E0.73321
G1 X83.044 Y32.371 E0.73678
G1 X83.244 Y32.571 E0.74182
G1 X83.244 Y32.771 E0.74539
G1 X83.444 Y32.971 E0.75044
G1 X83.444 Y33.171 E0.75400
G1 X83.644 Y33.371 E0.75905
G1 X83.644 Y33.571 E0.76262
G1 X83.844 Y33.771 E0.76766
G1 X83.844 Y33.971 E0.77123
G1 X84.044 Y34.171 E0.77627
G1 X84.044 Y34.371 E0.77984
G1 X84.244 Y34.571 E0.78488
G1 X84.244 Y34.771 E0.78845
G1 X84.444 Y34.971 E0.79350
G1 X84.444 Y35.171 E0.79706
G1 X84.644 Y35.371 E0.80211
G1 X84.644 Y35.571 E0.80567
G1 X84.844 Y35.771 E0.81072
G1 X84.844 Y36.171 E0.81785
G1 X85.044 Y36.371 E0.82290
G1 X85.044 Y36.571 E0.82647
G1 X85.244 Y36.771 E0.83151
G1 X85.244 Y36.971 E0.83508
G1 X85.444 Y37.171 E0.84012
G1 X85.444 Y37.371 E0.84369
G1 X85.644 Y37.571 E0.84873
G1 X85.644 Y37.771 E0.85230
G1 X85.844 Y37.971 E0.85735
G1 X85.844 Y38.171 E0.86091
G1 X86.044 Y38.371 E0.86596
G1 X86.044 Y38.771 E0.87309
G1 X86.244 Y38.971 E0.87814
G1 X86.244 Y39.171 E0.88170
G1 X86.444 Y39.371 E0.88675
G1 X86.444 Y39.571 E0.89032
G1 X86.644 Y39.771 E0.89536
G1 X86.644 Y40.371 E0.90606
G1 X86.844 Y40.571 E0.91111
G1 X86.844 Y40.771 E0.91467
G1 X87.044 Y40.971 E0.91972
G1 X87.044 Y41.371 E0.92685
G1 X87.244 Y41.571 E0.93190
G1 X87.244 Y41.771 E0.93546
G1 X87.444 Y41.971 E0.94051
G1 X87.444 Y42.171 E0.94408
G1 X87.644 Y42.371 E0.94912
G1 X87.644 Y43.171 E0.96339
G1 X87.844 Y43.371 E0.96843
G1 X87.844 Y43.571 E0.97200
G1 X88.044 Y43.771 E0.97705
G1 X88.044 Y43.971 E0.98061
G1 X88.244 Y44.171 E0.98566
G1 X88.244 Y44.371 E0.98923
G1 X88.444 Y44.571 E0.99427
G1 X88.444 Y44.771 E0.99784
G1 X88.644 Y44.971 E1.00288
G1 X88.644 Y45.771 E1.01715
G1 X88.844 Y45.971 E1.02220
G1 X88.844 Y46.571 E1.03290
G1 X89.044 Y46.771 E1.03794
G1 X89.044 Y47.371 E1.04864
G1 X89.244 Y47.571 E1.05369
G1 X89.244 Y47.971 E1.06082
G1 X89.444 Y48.171 E1.06587
G1 X89.444 Y48.771 E1.07657
G1 X89.644 Y48.971 E1.08161
G1 X89.644 Y49.371 E1.08875
G1 X89.844 Y49.571 E1.09379
G1 X89.844 Y50.171 E1.10449
G1 X90.044 Y50.371 E1.10954
G1 X90.044 Y50.771 E1.11667
G1 X90.244 Y50.971 E1.12172
G1 X90.244 Y51.171 E1.12528
G1 X90.444 Y51.371 E1.13033
G1 X90.444 Y52.171 E1.14460
G1 X90.644 Y52.371 E1.14964
G1 X90.644 Y52.971 E1.16034
G1 X90.844 Y53.171 E1.16539
G1 X90.844 Y53.971 E1.17966
G1 X91.044 Y54.171 E1.18470
G1 X91.044 Y54.771 E1.19540
G1 X91.244 Y54.971 E1.20045
G1 X91.244 Y55.771 E1.21472
G1 X91.444 Y55.971 E1.21976
G1 X91.444 Y56.771 E1.23403
G1 X91.644 Y56.971 E1.23907
G1 X91.644 Y58.571 E1.26761
G1 X91.844 Y58.771 E1.27266
G1 X91.844 Y59.571 E1.28692
G1 X92.044 Y59.771 E1.29197
G1 X92.044 Y60.371 E1.30267
G1 X92.244 Y60.571 E1.30772
G1 X92.244 Y61.371 E1.32198
G1 X92.444 Y61.571 E1.32703
G1 X92.444 Y63.171 E1.35557
G1 X92.644 Y63.371 E1.36061
G1 X92.644 Y64.171 E1.37488
G1 X92.844 Y64.371 E1.37992
G1 X92.844 Y65.971 E1.40846
G1 X93.044 Y66.171 E1.41351
G1 X93.044 Y67.771 E1.44204
G1 X93.244 Y67.971 E1.44709
G1 X93.244 Y69.371 E1.47206
G1 X93.444 Y69.571 E1.47710
G1 X93.444 Y71.171 E1.50564
G1 X93.644 Y71.371 E1.51068
G1 X93.644 Y72.571 E1.53209
G1 X93.844 Y72.771 E1.53713
G1 X93.844 Y74.171 E1.56210
G1 X94.044 Y74.371 E1.56715
G1 X94.044 Y75.771 E1.59212
G1 X94.244 Y75.971 E1.59716
G1 X94.244 Y78.371 E1.63997
G1 X94.444 Y78.571 E1.64501
G1 X94.444 Y79.971 E1.66998
G1 X94.644 Y80.171 E1.67503
G1 X94.644 Y81.771 E1.70356
G1 X94.844 Y81.971 E1.70861
G1 X94.844 Y83.571 E1.73715
G1 X95.044 Y83.771 E1.74219
G1 X95.044 Y85.371 E1.77073
G1 X95.244 Y85.571 E1.77577
G1 X95.244 Y87.171 E1.80431
G1 X95.444 Y87.371 E1.80935
G1 X95.444 Y88.771 E1.83432
G1 X95.644 Y88.971 E1.83937
G1 X95.644 Y90.571 E1.86791
G1 X95.844 Y90.771 E1.87295
G1 X95.844 Y91.971 E1.89435
G1 X96.044 Y92.171 E1.89940
G1 X96.044 Y93.771 E1.92794
G1 X96.244 Y93.971 E1.93298
G1 X96.244 Y95.371 E1.95795
G1 X96.444 Y95.571 E1.96300
G1 X96.444 Y96.171 E1.97370
G1 X96.644 Y96.371 E1.97874
G1 X96.644 Y97.571 E2.00014
G1 X96.844 Y97.771 E2.00519
G1 X96.844 Y98.971 E2.02659
G1 X97.044 Y99.171 E2.03164
G1 X97.044 Y100.171 E2.04947
G1 X97.244 Y100.371 E2.05452
G1 X97.244 Y100.666 E2.05978
G1 X97.644 Y100.666 E2.06691
G1 X97.644 Y103.771 E2.12229
G1 X98.517 Y104.644 E2.14431
G1 X97.353 Y107.449 E2.19848
G1 X97.916 Y108.167 E2.21475
G1 X98.385 Y108.945 E2.23096
G1 X98.394 Y108.958 E2.23124
G1 X98.571 Y109.249 E2.23731
G1 X98.644 Y109.341 E2.23941
G1 X98.720 Y109.414 E2.24129
G1 X99.083 Y109.689 E2.24941
G1 X99.354 Y109.938 E2.25597
G1 X99.568 Y109.866 E2.26000
G1 X101.349 Y109.866 E2.29177
G1 X109.456 Y112.569 E2.44419
G1 X110.670 Y112.772 E2.46614
G1 X114.375 Y114.022 E2.53588
G1 X114.108 Y115.652 E2.56534
G1 X115.015 Y115.955 E2.58240
G1 X115.421 Y116.158 E2.59049
G1 X117.263 Y116.771 E2.62512
G1 X118.465 Y116.971 E2.64685
G1 X121.022 Y117.824 E2.69493
G1 X121.820 Y118.023 E2.70959
G1 X122.259 Y118.169 E2.71785
G1 X122.660 Y118.236 E2.72510
G1 X123.769 Y117.866 E2.74595
G1 X125.749 Y117.866 E2.78126
G1 X126.818 Y118.222 E2.80136
G1 X129.432 Y118.877 E2.84942
G1 X129.600 Y116.500 E2.89193
G1 X138.115 Y117.764 E3.04546
G1 X138.107 Y117.826 E3.04658
G1 X140.417 Y118.155 E3.08819
G1 X141.954 Y118.666 E3.11708
G1 X143.389 Y118.666 E3.14268
G1 X145.799 Y119.266 E3.18697
G1 X147.146 Y119.266 E3.21100
G1 X148.017 Y119.556 E3.22737
G1 X149.271 Y119.735 E3.24996
G1 X150.570 Y120.060 E3.27385
G1 X154.687 Y120.193 E3.34731
G1 X154.686 Y120.266 E3.34862
G1 X155.226 Y120.266 E3.35825
G1 X155.227 Y120.466 E3.36181
G1 X156.626 Y120.466 E3.38677
G1 X156.630 Y121.186 E3.39961
G1 X157.662 Y121.334 E3.41820
G1 X158.820 Y121.623 E3.43949
G1 X159.220 Y121.756 E3.44701
G1 X160.461 Y121.933 E3.46937
G1 X161.620 Y122.223 E3.49068
G1 X162.020 Y122.356 E3.49819
G1 X163.261 Y122.533 E3.52055
G1 X164.415 Y122.822 E3.54177
G1 X165.010 Y123.020 E3.55295
G1 X165.506 Y123.145 E3.56208
G1 X166.712 Y123.345 E3.58388
G1 X167.816 Y123.622 E3.60418
G1 X168.418 Y123.823 E3.61550
G1 X169.215 Y124.022 E3.63015
G1 X169.817 Y124.223 E3.64147
G1 X170.620 Y124.423 E3.65623
G1 X171.060 Y124.570 E3.66451
G1 X173.194 Y124.925 E3.70309
G1 X173.396 Y125.126 E3.70817
G1 X173.665 Y125.171 E3.71304
G1 X176.059 Y125.970 E3.75805
G1 X177.536 Y126.216 E3.78476
G1 X178.224 Y126.559 E3.79847
G1 X181.221 Y127.557 E3.85481
G1 X182.814 Y128.355 E3.88659
G1 X183.419 Y128.556 E3.89796
G1 X187.009 Y130.352 E3.96955
G1 X189.444 Y131.160 E4.01531
G1 X189.444 Y132.070 E4.03154
G1 X189.645 Y132.171 E4.03556
G1 X191.844 Y134.372 E4.09105
G1 X191.844 Y134.771 E4.09816
G1 X192.044 Y134.971 E4.10321
G1 X192.044 Y135.171 E4.10678
G1 X192.244 Y135.371 E4.11182
G1 X192.244 Y140.231 E4.19850
G1 X192.044 Y140.431 E4.20355
G1 X192.044 Y140.628 E4.20706
G1 X191.644 Y141.029 E4.21716
G1 X191.644 Y141.631 E4.22790
G1 X191.444 Y141.831 E4.23295
G1 X191.444 Y142.031 E4.23651
G1 X188.248 Y145.227 E4.31713
G1 X187.835 Y145.436 E4.32538
G1 X187.628 Y145.640 E4.33057
G1 X185.618 Y146.646 E4.37066
G1 X185.022 Y146.844 E4.38186
G1 X184.084 Y147.313 E4.40056
G1 X182.605 Y147.683 E4.42775
G1 X180.448 Y147.923 E4.46646
G1 X177.033 Y148.136 E4.52749
G1 X167.736 Y148.136 E4.69331
G1 X167.736 Y148.244 E4.69524
G1 X160.462 Y147.722 E4.82531
G1 X158.612 Y147.516 E4.85851
G1 X156.328 Y147.288 E4.89945
G1 X155.531 Y147.087 E4.91411
G1 X153.529 Y146.888 E4.94999
G1 X152.547 Y146.642 E4.96804
G1 X150.537 Y146.239 E5.00461
G1 X149.760 Y146.045 E5.01889
G1 X148.971 Y145.886 E5.03325
G1 X147.135 Y145.658 E5.06624
G1 X146.305 Y145.381 E5.08185
G1 X145.501 Y145.180 E5.09663
G1 X144.992 Y145.009 E5.10621
G1 X143.720 Y144.755 E5.12934
G1 X142.921 Y144.356 E5.14527
G1 X142.332 Y144.238 E5.15599
G1 X141.039 Y143.915 E5.17976
G1 X140.502 Y143.647 E5.19046
G1 X140.293 Y143.577 E5.19439
G1 X139.235 Y143.313 E5.21384
G1 X138.702 Y143.047 E5.22447
G1 X138.493 Y142.977 E5.22840
G1 X137.435 Y142.713 E5.24785
G1 X136.902 Y142.447 E5.25847
G1 X136.702 Y142.380 E5.26223
G1 X135.631 Y142.113 E5.28192
G1 X134.914 Y141.754 E5.29622
G1 X133.922 Y141.556 E5.31426
G1 X132.498 Y140.845 E5.34265
G1 X131.903 Y140.647 E5.35384
G1 X131.232 Y140.312 E5.36721
G1 X130.435 Y140.113 E5.38186
G1 X129.901 Y139.847 E5.39250
G1 X129.305 Y139.648 E5.40371
G1 X128.635 Y139.313 E5.41707
G1 X127.838 Y139.114 E5.43172
G1 X125.434 Y137.913 E5.47965
G1 X124.635 Y137.713 E5.49434
G1 X123.696 Y137.245 E5.51306
G1 X123.103 Y137.047 E5.52421
G1 X122.436 Y136.714 E5.53750
G1 X120.998 Y136.354 E5.56394
G1 X120.480 Y135.837 E5.57700
G1 X120.095 Y135.644 E5.58468
G1 X119.502 Y135.447 E5.59582
G1 X118.832 Y135.113 E5.60917
G1 X118.038 Y134.915 E5.62377
G1 X114.026 Y132.911 E5.70376
G1 X113.237 Y132.714 E5.71826
G1 X110.028 Y131.112 E5.78223
G1 X109.234 Y130.913 E5.79683
G1 X108.699 Y130.645 E5.80750
G1 X108.106 Y130.449 E5.81864
G1 X106.632 Y129.713 E5.84803
G1 X105.198 Y129.355 E5.87439
G1 X104.864 Y129.021 E5.88281
G1 X104.431 Y128.912 E5.89078
G1 X103.680 Y128.536 E5.90576
G1 X101.581 Y128.536 E5.94320
G1 X101.498 Y128.336 E5.94706
G1 X100.074 Y128.336 E5.97246
G1 X100.074 Y127.104 E5.99443
G1 X99.904 Y127.047 E5.99763
G1 X99.233 Y126.713 E6.01100
G1 X98.433 Y126.512 E6.02571
G1 X97.496 Y126.045 E6.04438
G1 X96.903 Y125.847 E6.05553
G1 X96.497 Y125.645 E6.06362
G1 X95.716 Y125.384 E6.07831
G1 X93.998 Y124.955 E6.10989
G1 X93.869 Y124.826 E6.11314
G1 X93.520 Y124.756 E6.11949
G1 X90.529 Y123.261 E6.17913
G1 X89.816 Y123.277 E6.19185
G1 X89.502 Y123.284 E6.19745
G1 X89.392 Y123.300 E6.19944
G1 X89.372 Y123.306 E6.19981
G1 X86.242 Y126.432 E6.27871
G1 X85.843 Y126.632 E6.28667
G1 X84.841 Y127.633 E6.31193
G1 X84.441 Y127.834 E6.31991
G1 X83.843 Y128.431 E6.33498
G1 X83.444 Y128.632 E6.34295
G1 X82.542 Y129.533 E6.36569
G1 X80.644 Y131.432 E6.41358
G1 X80.641 Y131.434 E6.41364
G1 X78.844 Y133.232 E6.45898
G1 X78.442 Y133.434 E6.46701
G1 X75.150 Y136.725 E6.55003
G1 X73.974 Y135.101 E6.58579
G1 X71.644 Y137.431 E6.64456
G1 X71.644 Y139.627 E6.68373
G1 X71.444 Y139.667 E6.68737
G1 X71.444 Y140.936 E6.71000
G1 X69.139 Y140.936 E6.75111
G1 X67.044 Y143.031 E6.80396
G1 X67.044 Y143.231 E6.80752
G1 X66.844 Y143.431 E6.81257
G1 X66.844 Y143.831 E6.81970
G1 X66.644 Y144.031 E6.82475
G1 X66.644 Y144.430 E6.83186
G1 X64.044 Y147.032 E6.89747
G1 X64.044 Y148.031 E6.91529
G1 X63.844 Y148.231 E6.92033
G1 X63.844 Y148.431 E6.92390
G1 X63.474 Y148.801 E6.93323
G1 X64.648 Y150.428 E6.96902
G1 X63.244 Y151.833 E7.00444
G1 X63.244 Y152.028 E7.00792
G1 X62.844 Y152.429 E7.01802
G1 X62.844 Y152.631 E7.02163
G1 X61.444 Y154.031 E7.05694
G1 X61.444 Y154.228 E7.06045
G1 X61.044 Y154.629 E7.07056
G1 X61.044 Y154.831 E7.07416
G1 X59.644 Y156.231 E7.10947
G1 X59.644 Y156.431 E7.11304
G1 X58.588 Y157.487 E7.13967
G1 X58.588 Y157.488 E7.13969
G1 X58.244 Y157.832 E7.14837
G1 X58.244 Y158.028 E7.15187
G1 X57.844 Y158.429 E7.16197
G1 X57.844 Y158.631 E7.16557
G1 X56.444 Y160.031 E7.20088
G1 X56.444 Y160.231 E7.20445
G1 X55.044 Y161.631 E7.23976
G1 X55.044 Y161.828 E7.24328
G1 X54.644 Y162.229 E7.25338
G1 X54.644 Y162.431 E7.25698
G1 X53.244 Y163.831 E7.29229
G1 X53.244 Y164.031 E7.29586
G1 X51.844 Y165.431 E7.33117
G1 X51.844 Y165.631 E7.33474
G1 X49.444 Y168.031 E7.39528
G1 X49.444 Y168.230 E7.39883
G1 X48.044 Y169.631 E7.43415
G1 X48.044 Y169.830 E7.43770
G1 X45.044 Y172.831 E7.51339
G1 X45.044 Y173.030 E7.51694
G1 X41.644 Y176.431 E7.60271
G1 X41.644 Y176.630 E7.60626
G1 X39.444 Y178.832 E7.66177
G1 X39.244 Y178.932 E7.66576
G1 X39.244 Y179.030 E7.66751
G1 X37.045 Y181.231 E7.72300
G1 X36.641 Y181.434 E7.73107
G1 X34.843 Y183.231 E7.77641
G1 X34.444 Y183.432 E7.78437
G1 X33.443 Y184.432 E7.80961
G1 X33.043 Y184.633 E7.81759
G1 X31.643 Y186.031 E7.85288
G1 X31.244 Y186.232 E7.86085
G1 X30.635 Y186.840 E7.87620
G1 X30.034 Y187.040 E7.88750
G1 X29.447 Y187.627 E7.90230
G1 X29.037 Y187.834 E7.91049
G1 X28.839 Y188.031 E7.91548
G1 X28.444 Y188.231 E7.92337
G1 X28.038 Y188.636 E7.93360
G1 X25.613 Y189.850 E7.98197
G1 X25.607 Y189.852 E7.98208
G1 X24.420 Y190.446 E8.00576
G1 X22.949 Y190.936 E8.03341
G1 X19.277 Y190.936 E8.09890
G1 X17.477 Y190.033 E8.13482
G1 X15.074 Y187.631 E8.19542
G1 X15.074 Y187.429 E8.19902
G1 X14.674 Y187.028 E8.20913
G1 X14.674 Y186.829 E8.21267
G1 X14.274 Y186.428 E8.22278
G1 X14.274 Y186.229 E8.22633
G1 X13.874 Y185.828 E8.23643
G1 X13.874 Y185.231 E8.24708
G1 X13.674 Y185.031 E8.25212
G1 X13.674 Y184.631 E8.25926
G1 X13.474 Y184.431 E8.26430
G1 X13.474 Y178.371 E8.37238
G1 X13.674 Y178.171 E8.37743
G1 X13.674 Y177.571 E8.38813
G1 X13.874 Y177.371 E8.39318
G1 X13.874 Y176.771 E8.40388
G1 X14.074 Y176.571 E8.40892
G1 X14.074 Y175.971 E8.41962
G1 X14.274 Y175.771 E8.42467
G1 X14.274 Y175.571 E8.42823
G1 X14.474 Y175.371 E8.43328
G1 X14.474 Y175.171 E8.43685
G1 X14.674 Y174.971 E8.44189
G1 X14.674 Y174.771 E8.44546
G1 X14.874 Y174.571 E8.45050
G1 X14.874 Y174.171 E8.45764
G1 X15.074 Y173.971 E8.46268
G1 X15.074 Y173.771 E8.46625
G1 X15.274 Y173.571 E8.47129
G1 X15.274 Y173.371 E8.47486
G1 X15.474 Y173.171 E8.47991
G1 X15.474 Y172.774 E8.48699
G1 X15.874 Y172.373 E8.49709
G1 X15.874 Y172.171 E8.50069
G1 X16.074 Y171.971 E8.50574
G1 X16.074 Y171.771 E8.50930
G1 X16.274 Y171.571 E8.51435
G1 X16.274 Y171.374 E8.51786
G1 X16.674 Y170.973 E8.52796
G1 X16.674 Y170.771 E8.53157
G1 X16.874 Y170.571 E8.53661
G1 X16.874 Y170.174 E8.54369
G1 X17.274 Y169.773 E8.55379
G1 X17.274 Y169.574 E8.55734
G1 X17.674 Y169.173 E8.56745
G1 X17.674 Y168.971 E8.57105
G1 X17.874 Y168.771 E8.57609
G1 X17.874 Y168.571 E8.57966
G1 X18.074 Y168.371 E8.58471
G1 X18.074 Y168.171 E8.58827
G1 X18.274 Y167.971 E8.59332
