;Generated with Cura_SteamEngine 14.12
; Default start code
G28 ; Home extruder
G1 Y50. F1200
G1 Z1.5 F500
G1 X50. F1200
G1 Z1.0 F120
M107 ; Turn off fan
G90 ; Absolute positioning
M82 ; Extruder in absolute mode
;   Bed temp
;   M190 Sxx --> set & wait
;   M140 Sxx --> set & continue
M190 S99
M140 S100
;    Extruder
;    M109 Sxx --> set & wait
;    M104 Sxx --> set & continue
M104 T0 S210
G92 E0 ; Reset extruder position
; Wait for all used extruders to reach temperature
M109 T0 S210
;Layer count: 44
;LAYER:0
M107
G0 F6660 X68.530 Y69.609 Z0.110
;TYPE:SKIRT
G1 F2760 X70.726 Y67.488 E0.04398
G1 X73.065 Y65.525 E0.08797
G1 X75.536 Y63.730 E0.13197
G1 X78.120 Y62.115 E0.17587
G1 X80.822 Y60.679 E0.21995
G1 X83.609 Y59.438 E0.26389
G1 X86.480 Y58.393 E0.30791
G1 X88.952 Y57.683 E0.34496
G1 X89.417 Y57.551 E0.35192
G1 X91.604 Y57.086 E0.38413
G1 X92.402 Y56.916 E0.39589
G1 X95.426 Y56.491 E0.43988
G1 X98.473 Y56.278 E0.48388
G1 X101.526 Y56.278 E0.52786
G1 X104.573 Y56.491 E0.57186
G1 X107.595 Y56.916 E0.61582
G1 X108.385 Y57.083 E0.62746
G1 X110.584 Y57.551 E0.65984
G1 X113.518 Y58.393 E0.70382
G1 X116.387 Y59.436 E0.74779
G1 X119.172 Y60.676 E0.79171
G1 X121.874 Y62.112 E0.83579
G1 X124.144 Y63.531 E0.87436
G1 X126.926 Y65.518 E0.92360
G1 X129.273 Y67.488 E0.96775
G1 X131.470 Y69.609 E1.01174
G1 X132.127 Y70.339 E1.02589
G1 X133.512 Y71.877 E1.05570
G1 X135.393 Y74.285 E1.09972
G1 X137.097 Y76.810 E1.14360
G1 X138.627 Y79.461 E1.18770
G1 X139.966 Y82.205 E1.23168
G1 X141.109 Y85.037 E1.27568
G1 X142.054 Y87.941 E1.31967
G1 X142.792 Y90.904 E1.36366
G1 X143.322 Y93.911 E1.40764
G1 X143.642 Y96.948 E1.45164
G1 X143.747 Y100.000 E1.49563
G1 X143.642 Y103.051 E1.53961
G1 X143.322 Y106.088 E1.58360
G1 X142.792 Y109.095 E1.62759
G1 X142.054 Y112.058 E1.67157
G1 X141.109 Y114.962 E1.71557
G1 X139.966 Y117.794 E1.75956
G1 X138.627 Y120.538 E1.80355
G1 X137.101 Y123.183 E1.84754
G1 X135.394 Y125.713 E1.89150
G1 X133.513 Y128.121 E1.93552
G1 X131.469 Y130.390 E1.97952
G1 X129.273 Y132.511 E2.02350
G1 X126.934 Y134.474 E2.06749
G1 X124.463 Y136.269 E2.11149
G1 X121.879 Y137.884 E2.15538
G1 X119.177 Y139.320 E2.19946
G1 X116.390 Y140.561 E2.24341
G1 X113.518 Y141.606 E2.28744
G1 X110.583 Y142.448 E2.33143
G1 X108.395 Y142.913 E2.36365
G1 X107.597 Y143.083 E2.37540
G1 X104.573 Y143.508 E2.41939
G1 X101.526 Y143.721 E2.46340
G1 X98.473 Y143.721 E2.50738
G1 X95.426 Y143.508 E2.55138
G1 X92.404 Y143.083 E2.59534
G1 X91.614 Y142.916 E2.60697
G1 X89.415 Y142.448 E2.63936
G1 X86.481 Y141.606 E2.68333
G1 X83.612 Y140.563 E2.72731
G1 X80.827 Y139.323 E2.77123
G1 X78.125 Y137.887 E2.81531
G1 X75.855 Y136.468 E2.85387
G1 X73.073 Y134.481 E2.90312
G1 X70.726 Y132.511 E2.94726
G1 X68.529 Y130.390 E2.99126
G1 X67.872 Y129.660 E3.00540
G1 X66.487 Y128.122 E3.03522
G1 X64.606 Y125.714 E3.07924
G1 X62.902 Y123.189 E3.12312
G1 X61.372 Y120.538 E3.16721
G1 X60.033 Y117.794 E3.21120
G1 X58.890 Y114.962 E3.25519
G1 X57.945 Y112.058 E3.29919
G1 X57.207 Y109.095 E3.34318
G1 X56.677 Y106.088 E3.38716
G1 X56.358 Y103.052 E3.43114
G1 X56.250 Y100.000 E3.47513
G1 X56.358 Y96.947 E3.51914
G1 X56.677 Y93.911 E3.56312
G1 X57.207 Y90.904 E3.60710
G1 X57.945 Y87.941 E3.65109
G1 X58.890 Y85.037 E3.69509
G1 X60.033 Y82.205 E3.73908
G1 X61.372 Y79.461 E3.78307
G1 X62.898 Y76.816 E3.82706
G1 X64.605 Y74.286 E3.87102
G1 X66.486 Y71.878 E3.91504
G1 X68.530 Y69.609 E3.95903
G0 F6660 X68.756 Y69.828
G1 F2760 X70.937 Y67.722 E4.00271
G1 X73.259 Y65.773 E4.04638
G1 X75.712 Y63.992 E4.09005
G1 X78.278 Y62.388 E4.13364
G1 X80.960 Y60.962 E4.17740
G1 X83.727 Y59.730 E4.22104
G1 X86.578 Y58.692 E4.26474
G1 X89.039 Y57.986 E4.30163
G1 X89.493 Y57.856 E4.30843
G1 X91.669 Y57.394 E4.34048
G1 X92.457 Y57.227 E4.35208
G1 X95.459 Y56.805 E4.39575
G1 X98.484 Y56.593 E4.43943
G1 X101.515 Y56.593 E4.48310
G1 X104.540 Y56.805 E4.52678
G1 X107.541 Y57.226 E4.57044
G1 X108.320 Y57.391 E4.58191
G1 X110.508 Y57.857 E4.61414
G1 X113.421 Y58.692 E4.65779
G1 X116.269 Y59.729 E4.70145
G1 X119.034 Y60.959 E4.74505
G1 X121.716 Y62.385 E4.78881
G1 X123.969 Y63.793 E4.82708
G1 X126.733 Y65.768 E4.87602
G1 X129.062 Y67.722 E4.91981
G1 X131.243 Y69.828 E4.96349
G1 X131.893 Y70.550 E4.97748
G1 X133.270 Y72.079 E5.00713
G1 X135.138 Y74.470 E5.05084
G1 X136.829 Y76.977 E5.09440
G1 X138.349 Y79.609 E5.13818
G1 X139.678 Y82.333 E5.18185
G1 X140.813 Y85.145 E5.22553
G1 X141.751 Y88.028 E5.26921
G1 X142.484 Y90.969 E5.31287
G1 X143.010 Y93.955 E5.35655
G1 X143.327 Y96.970 E5.40022
G1 X143.432 Y100.000 E5.44390
G1 X143.327 Y103.029 E5.48756
G1 X143.010 Y106.044 E5.53123
G1 X142.484 Y109.030 E5.57491
G1 X141.751 Y111.971 E5.61857
G1 X140.813 Y114.854 E5.66225
G1 X139.678 Y117.666 E5.70593
G1 X138.349 Y120.390 E5.74959
G1 X136.833 Y123.016 E5.79327
G1 X135.139 Y125.528 E5.83692
G1 X133.271 Y127.918 E5.88062
G1 X131.243 Y130.171 E5.92429
G1 X129.062 Y132.277 E5.96796
G1 X126.740 Y134.226 E6.01164
G1 X124.287 Y136.007 E6.05531
G1 X121.721 Y137.611 E6.09890
G1 X119.039 Y139.037 E6.14266
G1 X116.272 Y140.269 E6.18629
G1 X113.421 Y141.307 E6.23000
G1 X110.507 Y142.142 E6.27367
G1 X108.330 Y142.605 E6.30573
G1 X107.542 Y142.772 E6.31733
G1 X104.540 Y143.194 E6.36100
G1 X101.515 Y143.406 E6.40469
G1 X98.484 Y143.406 E6.44835
G1 X95.459 Y143.194 E6.49204
G1 X92.458 Y142.773 E6.53569
G1 X91.679 Y142.608 E6.54716
G1 X89.491 Y142.142 E6.57939
G1 X86.578 Y141.307 E6.62304
G1 X83.730 Y140.270 E6.66671
G1 X80.965 Y139.040 E6.71030
G1 X78.283 Y137.614 E6.75406
G1 X76.030 Y136.206 E6.79233
G1 X73.266 Y134.231 E6.84127
G1 X70.937 Y132.277 E6.88507
G1 X68.756 Y130.171 E6.92874
G1 X68.105 Y129.448 E6.94276
G1 X66.729 Y127.920 E6.97238
G1 X64.861 Y125.529 E7.01609
G1 X63.170 Y123.022 E7.05965
G1 X61.650 Y120.390 E7.10344
G1 X60.321 Y117.666 E7.14710
G1 X59.186 Y114.854 E7.19079
G1 X58.248 Y111.971 E7.23446
G1 X57.515 Y109.030 E7.27812
G1 X56.989 Y106.044 E7.32180
G1 X56.672 Y103.030 E7.36546
G1 X56.566 Y100.000 E7.40914
G1 X56.672 Y96.969 E7.45283
G1 X56.989 Y93.955 E7.49649
G1 X57.515 Y90.969 E7.54016
G1 X58.248 Y88.028 E7.58383
G1 X59.186 Y85.145 E7.62750
G1 X60.321 Y82.333 E7.67119
G1 X61.650 Y79.609 E7.71485
G1 X63.166 Y76.983 E7.75853
G1 X64.860 Y74.471 E7.80218
G1 X66.728 Y72.081 E7.84588
G1 X68.756 Y69.828 E7.88954
G1 F2400 E7.68954
G0 F6660 X71.095 Y72.101
;TYPE:WALL-INNER
G1 F2400 E7.88954
G1 F2760 X73.129 Y70.137 E7.93028
G1 X75.257 Y68.351 E7.97030
G1 X77.547 Y66.687 E8.01108
G1 X79.905 Y65.214 E8.05113
G1 X82.385 Y63.895 E8.09159
G1 X84.945 Y62.755 E8.13196
G1 X87.595 Y61.791 E8.17259
G1 X89.934 Y61.120 E8.20764
G1 X93.029 Y60.437 E8.25330
G1 X95.800 Y60.047 E8.29361
G1 X98.593 Y59.852 E8.33394
G1 X101.406 Y59.852 E8.37447
G1 X104.199 Y60.047 E8.41480
G1 X106.974 Y60.437 E8.45517
G1 X107.642 Y60.579 E8.46501
G1 X109.725 Y61.023 E8.49569
G1 X112.404 Y61.791 E8.53584
G1 X115.052 Y62.754 E8.57643
G1 X117.609 Y63.892 E8.61675
G1 X120.089 Y65.211 E8.65721
G1 X122.151 Y66.500 E8.69224
G1 X124.738 Y68.348 E8.73804
G1 X126.870 Y70.137 E8.77814
G1 X128.904 Y72.101 E8.81887
G1 X130.776 Y74.180 E8.85917
G1 X132.493 Y76.378 E8.89935
G1 X134.068 Y78.712 E8.93991
G1 X135.471 Y81.141 E8.98032
G1 X136.694 Y83.650 E9.02053
G1 X137.750 Y86.263 E9.06113
G1 X138.617 Y88.930 E9.10153
G1 X139.295 Y91.649 E9.14190
G1 X139.781 Y94.404 E9.18220
G1 X140.075 Y97.202 E9.22273
G1 X140.172 Y100.000 E9.26306
G1 X140.075 Y102.797 E9.30338
G1 X139.781 Y105.595 E9.34391
G1 X139.295 Y108.350 E9.38421
G1 X138.617 Y111.069 E9.42458
G1 X137.750 Y113.736 E9.46498
G1 X136.694 Y116.349 E9.50558
G1 X135.471 Y118.858 E9.54579
G1 X134.072 Y121.282 E9.58610
G1 X132.494 Y123.620 E9.62674
G1 X130.777 Y125.818 E9.66692
G1 X128.904 Y127.898 E9.70724
G1 X126.870 Y129.862 E9.74797
G1 X124.742 Y131.648 E9.78799
G1 X122.452 Y133.312 E9.82877
G1 X120.094 Y134.785 E9.86882
G1 X117.614 Y136.104 E9.90929
G1 X115.054 Y137.244 E9.94966
G1 X112.404 Y138.208 E9.99028
G1 X109.722 Y138.977 E10.03048
G1 X106.970 Y139.562 E10.07101
G1 X104.199 Y139.952 E10.11132
G1 X101.406 Y140.147 E10.15165
G1 X98.593 Y140.147 E10.19217
G1 X95.800 Y139.952 E10.23251
G1 X93.025 Y139.562 E10.27288
G1 X92.357 Y139.420 E10.28271
G1 X90.274 Y138.976 E10.31340
G1 X87.595 Y138.208 E10.35354
G1 X84.947 Y137.245 E10.39413
G1 X82.390 Y136.107 E10.43445
G1 X79.910 Y134.788 E10.47492
G1 X77.848 Y133.499 E10.50995
G1 X75.261 Y131.651 E10.55575
G1 X73.129 Y129.862 E10.59584
G1 X71.095 Y127.898 E10.63657
G1 X69.223 Y125.819 E10.67688
G1 X67.506 Y123.621 E10.71706
G1 X65.931 Y121.287 E10.75762
G1 X64.528 Y118.858 E10.79803
G1 X63.305 Y116.349 E10.83824
G1 X62.249 Y113.736 E10.87884
G1 X61.382 Y111.069 E10.91924
G1 X60.704 Y108.350 E10.95961
G1 X60.218 Y105.595 E10.99991
G1 X59.925 Y102.797 E11.04043
G1 X59.826 Y100.000 E11.08075
G1 X59.925 Y97.202 E11.12109
G1 X60.218 Y94.404 E11.16161
G1 X60.704 Y91.649 E11.20191
G1 X61.382 Y88.930 E11.24228
G1 X62.249 Y86.263 E11.28268
G1 X63.305 Y83.650 E11.32328
G1 X64.528 Y81.141 E11.36349
G1 X65.927 Y78.717 E11.40381
G1 X67.505 Y76.379 E11.44444
G1 X69.222 Y74.181 E11.48462
G1 X71.095 Y72.101 E11.52495
G0 F6660 X68.580 Y79.119
G1 F2760 X67.664 Y78.936 E11.53840
G1 X66.748 Y79.119 E11.55186
G1 X65.971 Y79.637 E11.56531
G1 X65.453 Y80.414 E11.57876
G1 X65.270 Y81.331 E11.59224
G1 X65.453 Y82.247 E11.60569
G1 X65.971 Y83.024 E11.61914
G1 X66.749 Y83.543 E11.63262
G1 X67.664 Y83.723 E11.64605
G1 X68.579 Y83.543 E11.65948
G1 X69.357 Y83.024 E11.67296
G1 X69.875 Y82.247 E11.68641
G1 X70.058 Y81.331 E11.69987
G1 X69.875 Y80.414 E11.71334
G1 X69.357 Y79.637 E11.72679
G1 X68.580 Y79.119 E11.74024
G0 F6660 X86.981 Y91.437
G1 F2760 X86.074 Y93.007 E11.76636
G1 X85.358 Y94.671 E11.79246
G1 X84.838 Y96.406 E11.81855
G1 X84.523 Y98.191 E11.84466
G1 X84.418 Y100.000 E11.87077
G1 X84.523 Y101.808 E11.89686
G1 X84.838 Y103.593 E11.92297
G1 X85.358 Y105.328 E11.94906
G1 X86.074 Y106.992 E11.97516
G1 X86.981 Y108.562 E12.00128
G1 X88.063 Y110.016 E12.02739
G1 X89.306 Y111.333 E12.05347
G1 X90.695 Y112.499 E12.07960
G1 X91.515 Y113.037 E12.09373
G1 X92.209 Y113.494 E12.10570
G1 X93.828 Y114.307 E12.13180
G1 X95.530 Y114.926 E12.15789
G1 X97.293 Y115.345 E12.18399
G1 X99.094 Y115.555 E12.21011
G1 X100.905 Y115.555 E12.23620
G1 X102.706 Y115.345 E12.26232
G1 X104.469 Y114.926 E12.28843
G1 X106.171 Y114.307 E12.31452
G1 X107.790 Y113.494 E12.34061
G1 X109.304 Y112.498 E12.36672
G1 X110.693 Y111.333 E12.39284
G1 X111.936 Y110.016 E12.41893
G1 X113.018 Y108.562 E12.44503
G1 X113.925 Y106.992 E12.47115
G1 X114.641 Y105.328 E12.49725
G1 X115.161 Y103.593 E12.52334
G1 X115.476 Y101.808 E12.54946
G1 X115.581 Y100.000 E12.57554
G1 X115.476 Y98.191 E12.60165
G1 X115.161 Y96.406 E12.62776
G1 X114.641 Y94.671 E12.65385
G1 X113.925 Y93.007 E12.67995
G1 X113.018 Y91.437 E12.70607
G1 X111.936 Y89.983 E12.73218
G1 X110.693 Y88.666 E12.75827
G1 X109.304 Y87.500 E12.78439
G1 X108.484 Y86.962 E12.79852
G1 X107.790 Y86.505 E12.81049
G1 X106.171 Y85.692 E12.83659
G1 X104.469 Y85.073 E12.86268
G1 X102.706 Y84.654 E12.88878
G1 X100.905 Y84.444 E12.91490
G1 X99.094 Y84.444 E12.94099
G1 X97.293 Y84.654 E12.96711
G1 X95.530 Y85.073 E12.99322
G1 X93.828 Y85.692 E13.01931
G1 X92.209 Y86.505 E13.04541
G1 X90.695 Y87.501 E13.07151
G1 X89.306 Y88.666 E13.09763
G1 X88.063 Y89.983 E13.12372
G1 X86.981 Y91.437 E13.14983
G0 F6660 X99.084 Y64.874
G1 F2760 X100.000 Y65.054 E13.16328
G1 X100.915 Y64.874 E13.17671
G1 X101.693 Y64.355 E13.19018
G1 X102.212 Y63.577 E13.20365
G1 X102.392 Y62.661 E13.21710
G1 X102.212 Y61.746 E13.23054
G1 X101.693 Y60.968 E13.24401
G1 X100.915 Y60.449 E13.25748
G1 X100.000 Y60.269 E13.27092
G1 X99.084 Y60.449 E13.28436
G1 X98.306 Y60.968 E13.29784
G1 X97.787 Y61.746 E13.31131
G1 X97.607 Y62.661 E13.32474
G1 X97.787 Y63.577 E13.33819
G1 X98.306 Y64.355 E13.35166
G1 X99.084 Y64.874 E13.36514
G0 F6660 X130.124 Y80.414
G1 F2760 X129.941 Y81.331 E13.37861
G1 X130.124 Y82.247 E13.39206
G1 X130.642 Y83.024 E13.40552
G1 X131.420 Y83.543 E13.41899
G1 X132.335 Y83.723 E13.43242
G1 X133.250 Y83.543 E13.44586
G1 X134.028 Y83.024 E13.45933
G1 X134.546 Y82.247 E13.47278
G1 X134.729 Y81.331 E13.48624
G1 X134.546 Y80.414 E13.49971
G1 X134.028 Y79.637 E13.51316
G1 X133.251 Y79.119 E13.52661
G1 X132.335 Y78.936 E13.54007
G1 X131.419 Y79.119 E13.55353
G1 X130.642 Y79.637 E13.56698
G1 X130.124 Y80.414 E13.58043
G0 F6660 X132.335 Y116.276
G1 F2760 X131.420 Y116.456 E13.59387
G1 X130.642 Y116.975 E13.60734
G1 X130.124 Y117.752 E13.62079
G1 X129.941 Y118.668 E13.63425
G1 X130.124 Y119.585 E13.64772
G1 X130.642 Y120.362 E13.66117
G1 X131.419 Y120.880 E13.67462
G1 X132.335 Y121.063 E13.68808
G1 X133.251 Y120.880 E13.70154
G1 X134.028 Y120.361 E13.71500
G1 X134.546 Y119.583 E13.72846
G1 X134.729 Y118.667 E13.74192
G1 X134.544 Y117.751 E13.75538
G1 X134.028 Y116.976 E13.76879
G1 X133.250 Y116.456 E13.78227
G1 X132.335 Y116.276 E13.79571
G0 F6660 X102.212 Y136.422
G1 F2760 X101.693 Y135.644 E13.80918
G1 X100.916 Y135.126 E13.82263
G1 X100.000 Y134.943 E13.83609
G1 X99.083 Y135.126 E13.84956
G1 X98.306 Y135.644 E13.86301
G1 X97.787 Y136.422 E13.87649
G1 X97.607 Y137.337 E13.88992
G1 X97.787 Y138.253 E13.90337
G1 X98.306 Y139.031 E13.91684
G1 X99.083 Y139.549 E13.93029
G1 X100.000 Y139.732 E13.94376
G1 X100.916 Y139.549 E13.95722
G1 X101.693 Y139.031 E13.97067
G1 X102.212 Y138.253 E13.98415
G1 X102.392 Y137.337 E13.99759
G1 X102.212 Y136.422 E14.01103
G0 F6660 X69.875 Y119.585
G1 F2760 X70.058 Y118.668 E14.02450
G1 X69.875 Y117.752 E14.03796
G1 X69.357 Y116.975 E14.05141
G1 X68.579 Y116.456 E14.06488
G1 X67.664 Y116.276 E14.07831
G1 X66.749 Y116.456 E14.09175
G1 X65.971 Y116.975 E14.10522
G1 X65.453 Y117.752 E14.11867
G1 X65.270 Y118.668 E14.13213
G1 X65.453 Y119.585 E14.14560
G1 X65.971 Y120.362 E14.15905
G1 X66.748 Y120.880 E14.17251
G1 X67.664 Y121.063 E14.18596
G1 X68.580 Y120.880 E14.19942
G1 X69.357 Y120.362 E14.21287
G1 X69.875 Y119.585 E14.22632
G0 F6660 X69.578 Y119.462
G1 F2760 X69.736 Y118.668 E14.23799
G1 X69.578 Y117.875 E14.24964
G1 X69.129 Y117.203 E14.26128
G1 X68.456 Y116.753 E14.27294
G1 X67.664 Y116.597 E14.28457
G1 X66.872 Y116.753 E14.29620
G1 X66.199 Y117.203 E14.30786
G1 X65.750 Y117.875 E14.31950
G1 X65.592 Y118.668 E14.33115
G1 X65.750 Y119.462 E14.34281
G1 X66.199 Y120.134 E14.35446
G1 X66.871 Y120.583 E14.36610
G1 X67.664 Y120.742 E14.37775
G1 X68.457 Y120.583 E14.38940
G1 X69.129 Y120.134 E14.40105
G1 X69.578 Y119.462 E14.41269
G0 F6660 X68.349 Y120.323
G0 X65.676 Y121.473
G1 F2760 X64.245 Y118.995 E14.45391
G1 X63.016 Y116.476 E14.49429
G1 X61.950 Y113.835 E14.53532
G1 X61.083 Y111.170 E14.57569
G1 X60.396 Y108.414 E14.61660
G1 X59.907 Y105.638 E14.65721
G1 X59.611 Y102.827 E14.69793
G1 X59.512 Y100.000 E14.73868
G1 X59.611 Y97.172 E14.77944
G1 X59.907 Y94.361 E14.82016
G1 X60.396 Y91.585 E14.86077
G1 X61.083 Y88.829 E14.90169
G1 X61.950 Y86.164 E14.94206
G1 X63.016 Y83.523 E14.98309
G1 X64.248 Y80.997 E15.02357
G1 X65.668 Y78.537 E15.06449
G1 X67.238 Y76.210 E15.10493
G1 X68.983 Y73.977 E15.14575
G1 X70.878 Y71.872 E15.18656
G1 X72.908 Y69.912 E15.22721
G1 X75.076 Y68.092 E15.26798
G1 X77.363 Y66.431 E15.30870
G1 X79.747 Y64.941 E15.34920
G1 X82.250 Y63.610 E15.39004
G1 X84.826 Y62.463 E15.43066
G1 X87.500 Y61.490 E15.47166
G1 X89.848 Y60.816 E15.50685
G1 X92.973 Y60.127 E15.55295
G1 X95.765 Y59.734 E15.59356
G1 X98.585 Y59.537 E15.63429
G1 X101.414 Y59.537 E15.67504
G1 X104.234 Y59.734 E15.71576
G1 X107.026 Y60.127 E15.75638
G1 X107.708 Y60.271 E15.76642
G1 X109.791 Y60.715 E15.79710
G1 X112.512 Y61.495 E15.83788
G1 X115.171 Y62.462 E15.87864
G1 X117.744 Y63.607 E15.91921
G1 X120.247 Y64.938 E15.96005
G1 X122.334 Y66.243 E15.99551
G1 X124.921 Y68.090 E16.04130
G1 X127.091 Y69.912 E16.08212
G1 X129.128 Y71.878 E16.12290
G1 X131.010 Y73.968 E16.16342
G1 X132.760 Y76.209 E16.20438
G1 X134.323 Y78.526 E16.24464
G1 X135.754 Y81.004 E16.28586
G1 X136.983 Y83.523 E16.32624
G1 X138.049 Y86.164 E16.36727
G1 X138.916 Y88.829 E16.40764
G1 X139.603 Y91.585 E16.44856
G1 X140.092 Y94.361 E16.48916
G1 X140.388 Y97.172 E16.52988
G1 X140.486 Y100.000 E16.57065
