;Generated with Cura_SteamEngine 14.12
; Default start code
G28 ; Home extruder
G1 Y50. F1200
G1 Z15.5 F500
G1 X50. F1200
G1 Z13.0 F120
M107 ; Turn off fan
G90 ; Absolute positioning
M82 ; Extruder in absolute mode
;   Bed temp
;   M190 Sxx --> set & wait
;   M140 Sxx --> set & continue
M190 S42
M140 S50
;    Extruder
;    M109 Sxx --> set & wait
;    M104 Sxx --> set & continue
M104 T0 S195
G92 E0 ; Reset extruder position
; Wait for all used extruders to reach temperature
M109 T0 S195
;Layer count: 52
;LAYER:0
M107


G92 E692.07656
;LAYER:49

G0 F4800 X73.121 Y52.425 Z12.440
;TYPE:WALL-INNER
G1 F3360 X69.090 Y55.920 E692.27064
G1 X67.600 Y54.629 E692.34236
G1 X67.980 Y54.206 E692.36304
G1 X68.048 Y54.128 E692.36681
G1 X68.297 Y53.613 E692.38762
G1 X68.343 Y53.519 E692.39143
G1 X68.448 Y52.942 E692.41276
G1 X68.467 Y52.854 E692.41604
G1 X68.415 Y52.264 E692.43758
G1 X68.404 Y52.164 E692.44124
G1 X68.197 Y51.610 E692.46276
G1 X67.949 Y51.038 E692.48544
G1 X67.819 Y50.524 E692.50472
G1 X67.777 Y50.000 E692.52385
G1 X67.832 Y49.403 E692.54566
G1 X68.003 Y48.808 E692.56818
G1 X68.194 Y48.126 E692.59394
G1 X68.234 Y47.505 E692.61658
G1 X68.242 Y47.411 E692.62001
G1 X68.154 Y46.774 E692.64340
G1 X68.140 Y46.687 E692.64661
G1 X67.910 Y46.044 E692.67145
G1 X67.541 Y45.425 E692.69767
G1 X67.069 Y44.913 E692.72300
G1 X59.828 Y38.634 E693.07166
G1 X58.693 Y37.749 E693.12402
G1 X57.335 Y36.886 E693.18255
G1 X56.055 Y36.253 E693.23450
G1 X54.623 Y35.709 E693.29022
G1 X53.120 Y35.306 E693.34683
G1 X51.609 Y35.064 E693.40250
G1 X50.106 Y34.980 E693.45726
G1 X50.000 Y34.974 E693.46112
G1 X48.470 Y35.052 E693.51685
G1 X47.035 Y35.273 E693.56967
G1 X45.553 Y35.651 E693.62531
G1 X44.136 Y36.169 E693.68020
G1 X44.036 Y36.208 E693.68410
G1 X42.758 Y36.839 E693.73595
G1 X42.664 Y36.886 E693.73977
G1 X41.456 Y37.644 E693.79165
G1 X40.233 Y38.586 E693.84781
G1 X32.381 Y45.384 E694.22563
G1 X32.018 Y45.794 E694.24555
G1 X31.951 Y45.871 E694.24927
G1 X31.702 Y46.386 E694.27008
G1 X31.656 Y46.480 E694.27388
G1 X31.551 Y47.057 E694.29522
G1 X31.532 Y47.145 E694.29849
G1 X31.584 Y47.735 E694.32004
G1 X31.595 Y47.835 E694.32370
G1 X31.802 Y48.389 E694.34521
G1 X32.050 Y48.961 E694.36789
G1 X32.180 Y49.475 E694.38718
G1 X32.223 Y50.000 E694.40634
G1 X32.180 Y50.527 E694.42558
G1 X32.051 Y51.040 E694.44482
G1 X31.828 Y51.552 E694.46514
G1 X31.635 Y52.060 E694.48491
G1 X31.594 Y52.160 E694.48884
G1 X31.543 Y52.738 E694.50995
G1 X31.532 Y52.841 E694.51371
G1 X31.638 Y53.426 E694.53534
G1 X31.659 Y53.524 E694.53899
G1 X31.910 Y54.043 E694.55996
G1 X31.955 Y54.133 E694.56362
G1 X32.335 Y54.562 E694.58447
G1 X32.398 Y54.630 E694.58784
G1 X30.909 Y55.920 E694.65951
G1 X26.900 Y52.447 E694.85246
G1 X26.529 Y52.066 E694.87181
G1 X26.191 Y51.580 E694.89335
G1 X25.964 Y51.082 E694.91326
G1 X25.823 Y50.547 E694.93338
G1 X25.777 Y49.999 E694.95339
G1 X25.823 Y49.453 E694.97332
G1 X25.965 Y48.915 E694.99356
G1 X26.178 Y48.445 E695.01233
G1 X26.489 Y47.981 E695.03265
G1 X26.878 Y47.574 E695.05314
G1 X38.885 Y37.169 E695.63112
G1 X40.107 Y36.210 E695.68763
G1 X41.462 Y35.332 E695.74636
G1 X42.895 Y34.587 E695.80512
G1 X44.372 Y33.990 E695.86307
G1 X45.917 Y33.528 E695.92173
G1 X47.503 Y33.214 E695.98055
G1 X49.103 Y33.053 E696.03905
G1 X50.747 Y33.044 E696.09886
G1 X50.803 Y33.044 E696.10089
G1 X52.332 Y33.190 E696.15677
G1 X53.923 Y33.489 E696.21566
G1 X55.468 Y33.934 E696.27415
G1 X56.964 Y34.523 E696.33264
G1 X58.426 Y35.267 E696.39231
G1 X58.481 Y35.296 E696.39457
G1 X59.791 Y36.137 E696.45121
G1 X59.842 Y36.169 E696.45340
G1 X61.045 Y37.114 E696.50905
G1 X73.099 Y47.552 E697.08911
G1 X73.470 Y47.933 E697.10845
G1 X73.808 Y48.419 E697.12999
G1 X74.035 Y48.917 E697.14990
G1 X74.176 Y49.452 E697.17002
G1 X74.223 Y50.000 E697.19003
G1 X74.176 Y50.546 E697.20997
G1 X74.034 Y51.084 E697.23021
G1 X73.821 Y51.554 E697.24898
G1 X73.510 Y52.018 E697.26930
G1 X73.121 Y52.425 E697.28978
G0 F4800 X72.193 Y51.643
G1 F3360 X72.643 Y51.193 E697.31293
G1 X72.931 Y50.628 E697.33600
G1 X73.032 Y50.000 E697.35914
G1 X72.931 Y49.371 E697.38232
G1 X72.643 Y48.806 E697.40539
G1 X72.193 Y48.356 E697.42854
G1 X71.627 Y48.067 E697.45166
G1 X71.000 Y47.969 E697.47474
G1 X70.372 Y48.067 E697.49787
G1 X69.806 Y48.356 E697.52099
G1 X69.356 Y48.806 E697.54414
G1 X69.067 Y49.372 E697.56726
G1 X68.969 Y50.000 E697.59038
G1 X69.067 Y50.627 E697.61346
G1 X69.356 Y51.193 E697.63658
G1 X69.806 Y51.643 E697.65973
G1 X70.371 Y51.931 E697.68280
G1 X71.000 Y52.032 E697.70598
G1 X71.628 Y51.931 E697.72912
G1 X72.193 Y51.643 E697.75219
G0 F4800 X71.000 Y52.054
G0 X67.843 Y50.521
G0 X68.164 Y46.682
G0 X67.086 Y44.895
G0 X58.707 Y37.729
G0 X54.535 Y35.649
G0 X50.000 Y34.950
G0 X45.545 Y35.627
G0 X41.354 Y37.681
G0 X31.932 Y45.859
G0 X31.571 Y47.839
G0 X31.032 Y50.000
G1 F3360 X30.931 Y49.371 E697.77536
G1 X30.643 Y48.806 E697.79843
G1 X30.193 Y48.356 E697.82158
G1 X29.627 Y48.067 E697.84470
G1 X29.000 Y47.969 E697.86779
G1 X28.372 Y48.067 E697.89091
G1 X27.806 Y48.356 E697.91403
G1 X27.356 Y48.806 E697.93718
G1 X27.067 Y49.372 E697.96030
G1 X26.969 Y50.000 E697.98342
G1 X27.067 Y50.627 E698.00651
G1 X27.356 Y51.193 E698.02963
G1 X27.806 Y51.643 E698.05278
G1 X28.371 Y51.931 E698.07585
G1 X29.000 Y52.032 E698.09902
G1 X29.628 Y51.931 E698.12216
G1 X30.193 Y51.643 E698.14523
G1 X30.643 Y51.193 E698.16838
G1 X30.931 Y50.628 E698.19145
G1 X31.032 Y50.000 E698.21459
G0 F4800 X30.677 Y50.000
;TYPE:WALL-OUTER
G1 F2760 X30.594 Y49.481 E698.23371
G1 X30.356 Y49.014 E698.25278
G1 X29.985 Y48.643 E698.27187
G1 X29.518 Y48.404 E698.29095
G1 X29.000 Y48.323 E698.31002
G1 X28.481 Y48.404 E698.32913
G1 X28.014 Y48.643 E698.34822
G1 X27.643 Y49.014 E698.36730
G1 X27.404 Y49.481 E698.38639
G1 X27.323 Y50.000 E698.40550
G1 X27.404 Y50.518 E698.42457
G1 X27.643 Y50.985 E698.44365
G1 X28.014 Y51.356 E698.46274
G1 X28.481 Y51.594 E698.48181
G1 X29.000 Y51.677 E698.50093
G1 X29.518 Y51.594 E698.52001
G1 X29.985 Y51.356 E698.53908
G1 X30.356 Y50.985 E698.55817
G1 X30.594 Y50.518 E698.57723
G1 X30.677 Y50.000 E698.59632
G0 F4800 X30.947 Y50.043
G0 X32.298 Y49.992
G0 X32.573 Y49.982
G1 F2760 X32.575 Y50.000 E698.59698
G1 X32.528 Y50.566 E698.61764
G1 X32.527 Y50.582 E698.61822
G1 X32.386 Y51.139 E698.63912
G1 X32.383 Y51.154 E698.63968
G1 X32.152 Y51.684 E698.66071
G1 X31.959 Y52.192 E698.68048
G1 X31.938 Y52.243 E698.68249
G1 X31.891 Y52.774 E698.70188
G1 X31.885 Y52.828 E698.70386
G1 X31.981 Y53.358 E698.72345
G1 X31.992 Y53.409 E698.72535
G1 X32.224 Y53.888 E698.74471
G1 X32.248 Y53.936 E698.74666
G1 X32.601 Y54.335 E698.76604
G1 X32.933 Y54.630 E698.78220
G1 X30.909 Y56.383 E698.87961
G1 X26.659 Y52.702 E699.08414
G1 X26.259 Y52.290 E699.10503
G1 X25.897 Y51.771 E699.12805
G1 X25.885 Y51.755 E699.12878
G1 X25.641 Y51.217 E699.15027
G1 X25.482 Y50.627 E699.17250
G1 X25.425 Y50.000 E699.19540
G1 X25.477 Y49.391 E699.21764
G1 X25.628 Y48.818 E699.23919
G1 X25.871 Y48.274 E699.26087
G1 X26.215 Y47.762 E699.28331
G1 X26.635 Y47.322 E699.30543
G1 X38.649 Y36.910 E699.88377
G1 X39.890 Y35.935 E699.94119
G1 X41.336 Y34.996 E700.00391
G1 X42.734 Y34.276 E700.06111
G1 X42.799 Y34.242 E700.06378
G1 X44.255 Y33.660 E700.12082
G1 X45.831 Y33.188 E700.18067
G1 X47.452 Y32.868 E700.24078
G1 X49.087 Y32.703 E700.30056
G1 X50.826 Y32.694 E700.36382
G1 X52.376 Y32.842 E700.42046
G1 X54.000 Y33.147 E700.48058
G1 X55.577 Y33.601 E700.54027
G1 X57.117 Y34.208 E700.60049
G1 X58.589 Y34.957 E700.66057
G1 X60.046 Y35.885 E700.72341
G1 X61.281 Y36.855 E700.78054
G1 X73.340 Y47.297 E701.36084
G1 X73.740 Y47.709 E701.38173
G1 X74.102 Y48.228 E701.40475
G1 X74.114 Y48.244 E701.40547
G1 X74.358 Y48.782 E701.42696
G1 X74.517 Y49.372 E701.44919
G1 X74.575 Y50.000 E701.47213
G1 X74.522 Y50.608 E701.49434
G1 X74.371 Y51.181 E701.51589
G1 X74.128 Y51.725 E701.53757
G1 X73.784 Y52.237 E701.56001
G1 X73.364 Y52.677 E701.58213
G1 X69.090 Y56.383 E701.78793
G1 X67.067 Y54.630 E701.88531
G1 X67.347 Y54.387 E701.89879
G1 X67.717 Y53.975 E701.91894
G1 X67.753 Y53.934 E701.92092
G1 X67.984 Y53.456 E701.94023
G1 X68.008 Y53.408 E701.94219
G1 X68.102 Y52.886 E701.96148
G1 X68.114 Y52.832 E701.96349
G1 X68.066 Y52.297 E701.98303
G1 X68.061 Y52.245 E701.98494
G1 X67.872 Y51.741 E702.00452
G1 X67.626 Y51.172 E702.02707
G1 X67.478 Y50.602 E702.04849
G1 X67.427 Y50.018 E702.06982
G1 X67.425 Y50.000 E702.07048
G1 X67.485 Y49.358 E702.09393
G1 X67.488 Y49.334 E702.09481
G1 X67.666 Y48.713 E702.11831
G1 X67.847 Y48.067 E702.14272
G1 X67.886 Y47.468 E702.16455
G1 X67.890 Y47.420 E702.16631
G1 X67.807 Y46.824 E702.18820
G1 X67.799 Y46.773 E702.19008
G1 X67.592 Y46.194 E702.21244
G1 X67.259 Y45.636 E702.23608
G1 X66.825 Y45.164 E702.25941
G1 X59.605 Y38.905 E702.60701
G1 X58.491 Y38.035 E702.65843
G1 X57.163 Y37.191 E702.71567
G1 X55.821 Y36.528 E702.77013
G1 X54.501 Y36.037 E702.82136
G1 X53.048 Y35.649 E702.87607
G1 X51.572 Y35.413 E702.93045
G1 X50.000 Y35.325 E702.98772
G1 X48.505 Y35.401 E703.04218
G1 X47.105 Y35.616 E703.09371
G1 X45.656 Y35.986 E703.14811
G1 X44.259 Y36.497 E703.20222
G1 X44.177 Y36.529 E703.20542
G1 X42.836 Y37.191 E703.25983
G1 X41.643 Y37.940 E703.31107
G1 X40.456 Y38.857 E703.36564
G1 X32.628 Y45.633 E703.74227
G1 X32.281 Y46.025 E703.76132
G1 X32.246 Y46.065 E703.76325
G1 X32.015 Y46.543 E703.78257
G1 X31.991 Y46.591 E703.78452
G1 X31.897 Y47.113 E703.80381
G1 X31.885 Y47.167 E703.80583
G1 X31.933 Y47.702 E703.82537
G1 X31.938 Y47.754 E703.82727
G1 X32.127 Y48.258 E703.84685
G1 X32.373 Y48.827 E703.86940
G1 X32.521 Y49.397 E703.89082
G1 X32.573 Y49.982 E703.91219
G0 F4800 X32.298 Y49.992
G0 X31.530 Y47.039
G0 X32.364 Y45.367
G0 X41.443 Y37.624
G0 X45.545 Y35.627
G0 X50.107 Y34.956
G0 X54.632 Y35.686
G0 X58.707 Y37.729
G0 X67.560 Y45.412
G0 X68.266 Y47.411
G0 X69.053 Y49.957
G0 X69.323 Y50.000
G1 F2760 X69.404 Y50.518 E703.93126
G1 X69.643 Y50.985 E703.95034
G1 X70.014 Y51.356 E703.96943
G1 X70.481 Y51.594 E703.98850
G1 X71.000 Y51.677 E704.00762
G1 X71.518 Y51.594 E704.02670
G1 X71.985 Y51.356 E704.04577
G1 X72.356 Y50.985 E704.06486
G1 X72.594 Y50.518 E704.08392
G1 X72.677 Y50.000 E704.10301
G1 X72.594 Y49.481 E704.12213
G1 X72.356 Y49.014 E704.14120
G1 X71.985 Y48.643 E704.16028
G1 X71.518 Y48.404 E704.17937
G1 X71.000 Y48.323 E704.19844
G1 X70.481 Y48.404 E704.21755
G1 X70.014 Y48.643 E704.23663
G1 X69.643 Y49.014 E704.25572
G1 X69.404 Y49.481 E704.27480
G1 X69.323 Y50.000 E704.29391
G0 F4800 X68.855 Y50.185
;TYPE:FILL
G1 F3360 X68.075 Y50.965 E704.33404
G0 F4800 X68.221 Y51.314
G1 F3360 X68.921 Y50.614 E704.37005
G0 F4800 X69.075 Y50.955
G1 F3360 X68.366 Y51.664 E704.40653
G0 F4800 X68.501 Y52.024
G1 F3360 X69.245 Y51.280 E704.44481
G0 F4800 X69.493 Y51.528
G1 F3360 X68.570 Y52.451 E704.49229
G0 F4800 X68.596 Y52.919
G1 F3360 X69.746 Y51.769 E704.55146
G0 F4800 X70.074 Y51.936
G1 F3360 X68.483 Y53.527 E704.63331
G0 F4800 X67.846 Y54.659
G1 F3360 X70.425 Y52.080 E704.76599
G0 F4800 X70.852 Y52.149
G1 F3360 X68.112 Y54.889 E704.90695
G0 F4800 X68.377 Y55.118
G1 F3360 X71.385 Y52.110 E705.06170
G0 F4800 X72.190 Y51.800
G1 F3360 X68.643 Y55.348 E705.24421
G0 F4800 X68.908 Y55.577
G1 F3360 X74.044 Y50.441 E705.50844
G0 F4800 X74.074 Y49.916
G1 F3360 X72.800 Y51.190 E705.57398
G0 F4800 X73.110 Y50.385
G1 F3360 X74.033 Y49.462 E705.62147
G0 F4800 X73.930 Y49.071
G1 F3360 X73.148 Y49.852 E705.66167
G0 F4800 X73.080 Y49.426
G1 F3360 X73.789 Y48.716 E705.69818
G0 F4800 X73.617 Y48.393
G1 F3360 X72.936 Y49.074 E705.73321
G0 F4800 X72.769 Y48.747
G1 F3360 X73.414 Y48.101 E705.76642
G0 F4800 X73.182 Y47.839
G1 F3360 X72.527 Y48.494 E705.80012
G0 F4800 X72.279 Y48.246
G1 F3360 X72.932 Y47.593 E705.83371
G0 F4800 X72.667 Y47.364
G1 F3360 X71.953 Y48.077 E705.87042
G0 F4800 X71.612 Y47.923
G1 F3360 X72.402 Y47.134 E705.91104
G0 F4800 X72.136 Y46.904
G1 F3360 X71.184 Y47.856 E705.96001
G0 F4800 X70.666 Y47.879
G1 F3360 X71.871 Y46.674 E706.02201
G0 F4800 X71.606 Y46.444
G1 F3360 X69.902 Y48.149 E706.10970
G0 F4800 X69.147 Y48.904
G1 F3360 X67.926 Y50.125 E706.17251
G0 F4800 X67.974 Y50.571
G1 F3360 X68.877 Y49.668 E706.21897
G0 F4800 X67.952 Y49.603
G1 F3360 X71.341 Y46.215 E706.39330
G0 F4800 X71.075 Y45.985
G1 F3360 X68.102 Y48.959 E706.54627
G0 F4800 X68.298 Y48.268
G1 F3360 X70.810 Y45.756 E706.67551
G0 F4800 X70.545 Y45.526
G1 F3360 X68.360 Y47.710 E706.78789
G0 F4800 X68.356 Y47.220
G1 F3360 X70.280 Y45.296 E706.88688
G0 F4800 X70.014 Y45.066
G1 F3360 X68.294 Y46.787 E706.97539
G0 F4800 X68.186 Y46.400
G1 F3360 X69.749 Y44.836 E707.05583
G0 F4800 X69.484 Y44.607
G1 F3360 X68.055 Y46.036 E707.12934
G0 F4800 X67.878 Y45.717
G1 F3360 X69.218 Y44.378 E707.19826
G0 F4800 X68.953 Y44.148
G1 F3360 X67.693 Y45.408 E707.26308
G0 F4800 X67.467 Y45.139
G1 F3360 X68.688 Y43.918 E707.32590
G0 F4800 X68.423 Y43.688
G1 F3360 X67.229 Y44.882 E707.38732
G0 F4800 X66.972 Y44.644
G1 F3360 X68.158 Y43.458 E707.44834
G0 F4800 X67.892 Y43.228
G1 F3360 X66.707 Y44.414 E707.50933
G0 F4800 X66.441 Y44.184
G1 F3360 X67.627 Y42.999 E707.57032
G0 F4800 X67.361 Y42.770
G1 F3360 X66.176 Y43.955 E707.63128
G0 F4800 X65.911 Y43.725
G1 F3360 X67.096 Y42.540 E707.69225
G0 F4800 X66.831 Y42.310
G1 F3360 X65.646 Y43.495 E707.75321
G0 F4800 X65.381 Y43.265
G1 F3360 X66.566 Y42.080 E707.81418
G0 F4800 X66.301 Y41.850
G1 F3360 X65.116 Y43.035 E707.87514
G0 F4800 X64.851 Y42.805
G1 F3360 X66.035 Y41.621 E707.93605
G0 F4800 X65.770 Y41.391
G1 F3360 X64.586 Y42.575 E707.99697
G0 F4800 X64.321 Y42.345
G1 F3360 X65.504 Y41.162 E708.05783
G0 F4800 X65.239 Y40.932
G1 F3360 X64.056 Y42.115 E708.11869
G0 F4800 X63.790 Y41.886
G1 F3360 X64.974 Y40.702 E708.17960
G0 F4800 X64.709 Y40.472
G1 F3360 X63.525 Y41.656 E708.24051
G0 F4800 X63.260 Y41.426
G1 F3360 X64.444 Y40.242 E708.30143
G0 F4800 X64.179 Y40.013
G1 F3360 X62.995 Y41.196 E708.36231
G0 F4800 X62.730 Y40.966
G1 F3360 X63.913 Y39.783 E708.42318
G0 F4800 X63.648 Y39.554
G1 F3360 X62.465 Y40.736 E708.48401
G0 F4800 X62.200 Y40.506
G1 F3360 X63.382 Y39.324 E708.54482
G0 F4800 X63.117 Y39.094
G1 F3360 X61.935 Y40.276 E708.60563
G0 F4800 X61.670 Y40.046
G1 F3360 X62.852 Y38.864 E708.66644
G0 F4800 X62.587 Y38.634
G1 F3360 X61.405 Y39.817 E708.72728
G0 F4800 X61.139 Y39.587
G1 F3360 X62.322 Y38.405 E708.78811
G0 F4800 X62.057 Y38.175
G1 F3360 X60.874 Y39.357 E708.84895
G0 F4800 X60.610 Y39.127
G1 F3360 X61.791 Y37.946 E708.90971
G0 F4800 X61.526 Y37.716
G1 F3360 X60.345 Y38.897 E708.97047
G0 F4800 X60.080 Y38.667
G1 F3360 X61.260 Y37.486 E709.03120
G0 F4800 X60.995 Y37.256
G1 F3360 X59.809 Y38.443 E709.09224
G0 F4800 X59.530 Y38.226
G1 F3360 X60.719 Y37.037 E709.15341
G0 F4800 X60.442 Y36.819
G1 F3360 X59.252 Y38.009 E709.21463
G0 F4800 X58.974 Y37.793
G1 F3360 X60.165 Y36.601 E709.27593
G0 F4800 X59.888 Y36.384
G1 F3360 X58.689 Y37.582 E709.33759
G0 F4800 X58.387 Y37.390
G1 F3360 X59.598 Y36.179 E709.39989
G0 F4800 X59.296 Y35.986
G1 F3360 X58.084 Y37.198 E709.46224
G0 F4800 X57.781 Y37.005
G1 F3360 X58.995 Y35.792 E709.52467
G0 F4800 X58.694 Y35.598
G1 F3360 X57.479 Y36.813 E709.58718
G0 F4800 X57.155 Y36.642
G1 F3360 X58.390 Y35.406 E709.65074
G0 F4800 X58.062 Y35.240
G1 F3360 X56.824 Y36.478 E709.71444
G0 F4800 X56.493 Y36.314
G1 F3360 X57.735 Y35.072 E709.77833
G0 F4800 X57.407 Y34.905
G1 F3360 X56.161 Y36.150 E709.84241
G0 F4800 X55.807 Y36.010
G1 F3360 X57.079 Y34.738 E709.90785
G0 F4800 X56.738 Y34.584
G1 F3360 X55.449 Y35.873 E709.97416
G0 F4800 X55.090 Y35.737
G1 F3360 X56.383 Y34.444 E710.04068
G0 F4800 X56.028 Y34.304
G1 F3360 X54.732 Y35.600 E710.10736
G0 F4800 X54.347 Y35.490
G1 F3360 X55.673 Y34.164 E710.17558
G0 F4800 X55.309 Y34.033
G1 F3360 X53.956 Y35.386 E710.24518
G0 F4800 X53.566 Y35.281
G1 F3360 X54.925 Y33.922 E710.31510
G0 F4800 X54.540 Y33.812
G1 F3360 X53.175 Y35.177 E710.38533
G0 F4800 X52.751 Y35.106
G1 F3360 X54.155 Y33.702 E710.45756
G0 F4800 X53.761 Y33.601
G1 F3360 X52.325 Y35.037 E710.53143
G0 F4800 X51.898 Y34.969
G1 F3360 X53.345 Y33.522 E710.60588
G0 F4800 X52.929 Y33.444
G1 F3360 X51.456 Y34.916 E710.68163
G0 F4800 X50.988 Y34.890
G1 F3360 X52.512 Y33.365 E710.76006
