;Generated with Cura_SteamEngine 14.12
; Default start code
G28 ; Home extruder
G1 Y50. F1200
G1 Z1.5 F500
G1 X50. F1200
G1 Z1.0 F120
M107 ; Turn off fan
G90 ; Absolute positioning
M82 ; Extruder in absolute mode
;   Bed temp
;   M190 Sxx --> set & wait
;   M140 Sxx --> set & continue
M190 S99
M140 S100
;    Extruder
;    M109 Sxx --> set & wait
;    M104 Sxx --> set & continue
M104 T0 S210
G92 E0 ; Reset extruder position
; Wait for all used extruders to reach temperature
M109 T0 S210
;Layer count: 56
;LAYER:0
M107
G0 F6660 X74.563 Y56.397 Z0.110
;TYPE:SKIRT
G1 F2760 X74.140 Y57.134 E0.01224
G1 X73.814 Y57.930 E0.02463
G1 X73.597 Y58.755 E0.03692
G1 X73.489 Y59.602 E0.04922
G1 X73.493 Y60.459 E0.06157
G1 X73.610 Y61.310 E0.07394
G1 X73.836 Y62.132 E0.08622
G1 X74.169 Y62.924 E0.09860
G1 X74.601 Y63.661 E0.11091
G1 X75.129 Y64.339 E0.12329
G1 X75.733 Y64.934 E0.13550
G1 X76.420 Y65.452 E0.14790
G1 X77.163 Y65.872 E0.16019
G1 X77.959 Y66.195 E0.17257
G1 X78.790 Y66.409 E0.18493
G1 X80.000 Y66.557 E0.20249
G1 X81.209 Y66.409 E0.22004
G1 X82.040 Y66.195 E0.23240
G1 X82.836 Y65.872 E0.24477
G1 X83.579 Y65.452 E0.25707
G1 X84.266 Y64.934 E0.26946
G1 X84.870 Y64.339 E0.28168
G1 X85.398 Y63.661 E0.29406
G1 X85.830 Y62.924 E0.30636
G1 X86.163 Y62.132 E0.31874
G1 X86.389 Y61.310 E0.33102
G1 X86.506 Y60.459 E0.34339
G1 X86.510 Y59.602 E0.35574
G1 X86.402 Y58.755 E0.36804
G1 X86.185 Y57.930 E0.38033
G1 X85.859 Y57.134 E0.39272
G1 X85.436 Y56.397 E0.40496
G1 X84.914 Y55.711 E0.41738
G1 X84.314 Y55.109 E0.42963
G1 X83.629 Y54.581 E0.44208
G1 X82.892 Y54.154 E0.45435
G1 X82.100 Y53.824 E0.46671
G1 X81.282 Y53.604 E0.47892
G1 X80.425 Y53.491 E0.49137
G1 X79.574 Y53.491 E0.50363
G1 X78.717 Y53.604 E0.51608
G1 X77.899 Y53.824 E0.52828
G1 X77.107 Y54.154 E0.54065
G1 X76.370 Y54.581 E0.55292
G1 X75.685 Y55.109 E0.56537
G1 X75.085 Y55.711 E0.57762
G1 X74.563 Y56.397 E0.59004
G0 F6660 X74.302 Y56.219
G1 F2760 X73.853 Y57.000 E0.60301
G1 X73.518 Y57.820 E0.61578
G1 X73.287 Y58.696 E0.62883
G1 X73.174 Y59.587 E0.64176
G1 X73.178 Y60.481 E0.65464
G1 X73.301 Y61.375 E0.66764
G1 X73.536 Y62.232 E0.68044
G1 X73.887 Y63.065 E0.69347
G1 X74.339 Y63.835 E0.70633
G1 X74.896 Y64.551 E0.71940
G1 X75.529 Y65.174 E0.73219
G1 X76.246 Y65.715 E0.74513
G1 X77.027 Y66.157 E0.75806
G1 X77.861 Y66.495 E0.77102
G1 X78.733 Y66.720 E0.78400
G1 X80.000 Y66.874 E0.80238
G1 X81.266 Y66.720 E0.82075
G1 X82.138 Y66.495 E0.83373
G1 X82.972 Y66.157 E0.84669
G1 X83.753 Y65.715 E0.85962
G1 X84.470 Y65.174 E0.87256
G1 X85.103 Y64.551 E0.88535
G1 X85.660 Y63.835 E0.89842
G1 X86.112 Y63.065 E0.91128
G1 X86.463 Y62.232 E0.92431
G1 X86.698 Y61.375 E0.93711
G1 X86.821 Y60.481 E0.95011
G1 X86.825 Y59.587 E0.96299
G1 X86.712 Y58.696 E0.97592
G1 X86.481 Y57.820 E0.98897
G1 X86.146 Y57.000 E1.00174
G1 X85.697 Y56.219 E1.01471
G1 X85.155 Y55.508 E1.02759
G1 X84.516 Y54.866 E1.04064
G1 X83.808 Y54.320 E1.05352
G1 X83.034 Y53.871 E1.06641
G1 X82.204 Y53.526 E1.07936
G1 X81.338 Y53.293 E1.09228
G1 X80.451 Y53.176 E1.10517
G1 X79.548 Y53.176 E1.11818
G1 X78.661 Y53.293 E1.13106
G1 X77.795 Y53.526 E1.14398
G1 X76.965 Y53.871 E1.15693
G1 X76.191 Y54.320 E1.16982
G1 X75.483 Y54.866 E1.18270
G1 X74.844 Y55.508 E1.19575
G1 X74.302 Y56.219 E1.20863
G0 F6660 X70.581 Y46.874
G1 F2760 X70.648 Y46.821 E1.20986
G1 X72.051 Y45.929 E1.23381
G1 X73.538 Y45.188 E1.25775
G1 X75.092 Y44.603 E1.28167
G1 X76.698 Y44.181 E1.30559
G1 X78.340 Y43.924 E1.32953
G1 X80.000 Y43.840 E1.35347
G1 X81.659 Y43.924 E1.37740
G1 X83.301 Y44.181 E1.40135
G1 X84.907 Y44.603 E1.42527
G1 X86.461 Y45.188 E1.44919
G1 X87.948 Y45.929 E1.47312
G1 X89.351 Y46.821 E1.49707
G1 X89.419 Y46.875 E1.49832
G1 X95.276 Y43.493 E1.59575
G1 X96.882 Y42.530 E1.62273
G1 X98.958 Y44.994 E1.66914
G1 X99.759 Y46.065 E1.68841
G1 X100.835 Y47.757 E1.71730
G1 X101.000 Y47.659 E1.72006
G1 X102.454 Y51.034 E1.77300
G1 X103.563 Y54.081 E1.81971
G1 X96.076 Y58.405 E1.94426
G1 X96.088 Y58.490 E1.94550
G1 X96.159 Y60.150 E1.96944
G1 X96.057 Y61.809 E1.99338
G1 X95.787 Y63.448 E2.01731
G1 X95.350 Y65.050 E2.04123
G1 X94.750 Y66.600 E2.06517
G1 X93.995 Y68.080 E2.08911
G1 X93.090 Y69.474 E2.11305
G1 X92.048 Y70.767 E2.13697
G1 X90.880 Y71.948 E2.16090
G1 X89.596 Y73.002 E2.18483
G1 X88.209 Y73.919 E2.20879
G1 X86.738 Y74.687 E2.23269
G1 X86.657 Y74.719 E2.23395
G1 X86.657 Y83.361 E2.35844
G1 X83.515 Y83.921 E2.40442
G1 X82.223 Y84.074 E2.42316
G1 X80.156 Y84.233 E2.45302
G1 X80.156 Y84.352 E2.45474
G1 X76.540 Y83.929 E2.50718
G1 X73.343 Y83.364 E2.55395
G1 X73.343 Y74.720 E2.67848
G1 X73.261 Y74.687 E2.67975
G1 X71.790 Y73.919 E2.70366
G1 X70.403 Y73.002 E2.72761
G1 X69.119 Y71.948 E2.75154
G1 X67.951 Y70.767 E2.77547
G1 X66.909 Y69.474 E2.79939
G1 X66.004 Y68.080 E2.82333
G1 X65.249 Y66.600 E2.84727
G1 X64.649 Y65.050 E2.87121
G1 X64.212 Y63.448 E2.89513
G1 X63.942 Y61.809 E2.91906
G1 X63.840 Y60.150 E2.94301
G1 X63.911 Y58.490 E2.96694
G1 X63.924 Y58.404 E2.96819
G1 X58.019 Y54.996 E3.06641
G1 X56.449 Y54.054 E3.09279
G1 X57.526 Y51.086 E3.13827
G1 X58.045 Y49.872 E3.15729
G1 X58.976 Y48.011 E3.18727
G1 X58.848 Y47.935 E3.18941
G1 X61.007 Y45.037 E3.24147
G1 X63.092 Y42.551 E3.28821
G1 X70.581 Y46.874 E3.41278
G0 F6660 X70.564 Y46.501
G1 F2760 X71.895 Y45.655 E3.43550
G1 X73.412 Y44.899 E3.45992
G1 X74.996 Y44.303 E3.48430
G1 X76.634 Y43.872 E3.50870
G1 X78.308 Y43.611 E3.53311
G1 X80.000 Y43.525 E3.55751
G1 X81.691 Y43.611 E3.58190
G1 X83.365 Y43.872 E3.60631
G1 X85.003 Y44.303 E3.63071
G1 X86.587 Y44.899 E3.65509
G1 X88.104 Y45.655 E3.67951
G1 X89.435 Y46.501 E3.70223
G1 X95.124 Y43.217 E3.79686
G1 X96.950 Y42.122 E3.82753
G1 X99.205 Y44.798 E3.87794
G1 X100.018 Y45.886 E3.89751
G1 X100.937 Y47.330 E3.92216
G1 X101.147 Y47.205 E3.92569
G1 X102.746 Y50.917 E3.98391
G1 X103.950 Y54.221 E4.03457
G1 X96.407 Y58.577 E4.16005
G1 X96.474 Y60.153 E4.18277
G1 X96.371 Y61.844 E4.20718
G1 X96.095 Y63.515 E4.23158
G1 X95.649 Y65.149 E4.25598
G1 X95.038 Y66.729 E4.28038
G1 X94.268 Y68.238 E4.30479
G1 X93.346 Y69.659 E4.32919
G1 X92.284 Y70.977 E4.35357
G1 X91.092 Y72.181 E4.37798
G1 X89.783 Y73.256 E4.40238
G1 X88.369 Y74.190 E4.42679
G1 X86.972 Y74.921 E4.44951
G1 X86.972 Y83.624 E4.57488
G1 X83.561 Y84.232 E4.62479
G1 X82.254 Y84.388 E4.64375
G1 X80.471 Y84.525 E4.66951
G1 X80.471 Y84.705 E4.67211
G1 X79.538 Y84.596 E4.68564
G1 X79.528 Y84.597 E4.68578
G1 X79.528 Y84.595 E4.68581
G1 X76.494 Y84.241 E4.72982
G1 X73.028 Y83.629 E4.78052
G1 X73.028 Y74.921 E4.90597
G1 X71.630 Y74.190 E4.92869
G1 X70.216 Y73.256 E4.95310
G1 X68.907 Y72.181 E4.97751
G1 X67.715 Y70.977 E5.00191
G1 X66.653 Y69.659 E5.02630
G1 X65.731 Y68.238 E5.05070
G1 X64.961 Y66.729 E5.07510
G1 X64.350 Y65.149 E5.09951
G1 X63.904 Y63.515 E5.12391
G1 X63.628 Y61.844 E5.14831
G1 X63.525 Y60.153 E5.17271
G1 X63.592 Y58.577 E5.19543
G1 X57.859 Y55.267 E5.29080
G1 X56.065 Y54.191 E5.32094
G1 X57.233 Y50.970 E5.37029
G1 X57.759 Y49.739 E5.38958
G1 X58.563 Y48.132 E5.41546
G1 X58.386 Y48.027 E5.41843
G1 X60.760 Y44.842 E5.47565
G1 X63.021 Y42.146 E5.52634
G1 X70.564 Y46.501 E5.65182
G0 F6660 X76.950 Y87.122
G1 F2760 X79.205 Y89.798 E5.70223
G1 X80.018 Y90.886 E5.72179
G1 X80.937 Y92.330 E5.74645
G1 X81.147 Y92.205 E5.74997
G1 X82.746 Y95.917 E5.80820
G1 X83.950 Y99.221 E5.85886
G1 X76.407 Y103.577 E5.98434
G1 X76.474 Y105.153 E6.00706
G1 X76.371 Y106.844 E6.03147
G1 X76.095 Y108.515 E6.05586
G1 X75.649 Y110.149 E6.08026
G1 X75.038 Y111.729 E6.10467
G1 X74.268 Y113.238 E6.12907
G1 X73.346 Y114.659 E6.15347
G1 X72.284 Y115.977 E6.17786
G1 X71.092 Y117.181 E6.20227
G1 X69.783 Y118.256 E6.22667
G1 X68.369 Y119.190 E6.25108
G1 X66.972 Y119.921 E6.27379
G1 X66.972 Y128.624 E6.39917
G1 X63.561 Y129.232 E6.44908
G1 X62.254 Y129.388 E6.46804
G1 X60.471 Y129.525 E6.49380
G1 X60.471 Y129.705 E6.49640
G1 X59.538 Y129.596 E6.50993
G1 X59.528 Y129.597 E6.51007
G1 X59.528 Y129.595 E6.51010
G1 X56.494 Y129.241 E6.55410
G1 X53.028 Y128.629 E6.60481
G1 X53.028 Y119.921 E6.73025
G1 X51.630 Y119.190 E6.75298
G1 X50.216 Y118.256 E6.77739
G1 X48.907 Y117.181 E6.80179
G1 X47.715 Y115.977 E6.82620
G1 X46.653 Y114.659 E6.85058
G1 X45.731 Y113.238 E6.87499
G1 X44.961 Y111.729 E6.89939
G1 X44.350 Y110.149 E6.92379
G1 X43.904 Y108.515 E6.94819
G1 X43.628 Y106.844 E6.97259
G1 X43.525 Y105.153 E6.99700
G1 X43.592 Y103.577 E7.01972
G1 X37.859 Y100.267 E7.11509
G1 X36.065 Y99.191 E7.14522
G1 X37.233 Y95.970 E7.19458
G1 X37.759 Y94.739 E7.21387
G1 X38.563 Y93.132 E7.23975
G1 X38.386 Y93.027 E7.24272
G1 X40.760 Y89.842 E7.29994
G1 X43.021 Y87.146 E7.35063
G1 X50.564 Y91.501 E7.47610
G1 X51.895 Y90.655 E7.49882
G1 X53.412 Y89.899 E7.52324
G1 X54.996 Y89.303 E7.54762
G1 X56.634 Y88.872 E7.57202
G1 X58.308 Y88.611 E7.59643
G1 X60.000 Y88.525 E7.62083
G1 X61.691 Y88.611 E7.64523
G1 X63.365 Y88.872 E7.66963
G1 X65.003 Y89.303 E7.69403
G1 X66.587 Y89.899 E7.71841
G1 X68.104 Y90.655 E7.74283
G1 X69.435 Y91.501 E7.76555
G1 X75.124 Y88.217 E7.86018
G1 X76.950 Y87.122 E7.89085
G0 F6660 X75.276 Y88.493
G1 F2760 X76.882 Y87.530 E7.91783
G1 X78.958 Y89.994 E7.96424
G1 X79.759 Y91.065 E7.98351
G1 X80.835 Y92.757 E8.01239
G1 X81.000 Y92.659 E8.01516
G1 X82.454 Y96.034 E8.06810
G1 X83.563 Y99.081 E8.11481
G1 X76.076 Y103.405 E8.23936
G1 X76.088 Y103.490 E8.24060
G1 X76.159 Y105.150 E8.26453
G1 X76.057 Y106.809 E8.28848
G1 X75.787 Y108.448 E8.31241
G1 X75.350 Y110.050 E8.33633
G1 X74.750 Y111.600 E8.36027
G1 X73.995 Y113.080 E8.38421
G1 X73.090 Y114.474 E8.40815
G1 X72.048 Y115.767 E8.43207
G1 X70.880 Y116.948 E8.45600
G1 X69.596 Y118.002 E8.47993
G1 X68.209 Y118.919 E8.50388
G1 X66.738 Y119.687 E8.52779
G1 X66.657 Y119.719 E8.52904
G1 X66.657 Y128.361 E8.65354
G1 X63.515 Y128.921 E8.69951
G1 X62.223 Y129.074 E8.71826
G1 X60.156 Y129.233 E8.74812
G1 X60.156 Y129.352 E8.74984
G1 X56.540 Y128.929 E8.80228
G1 X53.343 Y128.364 E8.84905
G1 X53.343 Y119.720 E8.97357
G1 X53.261 Y119.687 E8.97485
G1 X51.790 Y118.919 E8.99875
G1 X50.403 Y118.002 E9.02271
G1 X49.119 Y116.948 E9.04664
G1 X47.951 Y115.767 E9.07056
G1 X46.909 Y114.474 E9.09449
G1 X46.004 Y113.080 E9.11843
G1 X45.249 Y111.600 E9.14236
G1 X44.649 Y110.050 E9.16631
G1 X44.212 Y108.448 E9.19023
G1 X43.942 Y106.809 E9.21416
G1 X43.840 Y105.150 E9.23810
G1 X43.911 Y103.490 E9.26204
G1 X43.924 Y103.404 E9.26329
G1 X38.019 Y99.996 E9.36151
G1 X36.449 Y99.054 E9.38788
G1 X37.526 Y96.086 E9.43337
G1 X38.045 Y94.872 E9.45239
G1 X38.976 Y93.011 E9.48237
G1 X38.848 Y92.935 E9.48451
G1 X41.007 Y90.037 E9.53657
G1 X43.092 Y87.551 E9.58331
G1 X50.581 Y91.874 E9.70788
G1 X50.648 Y91.821 E9.70911
G1 X52.051 Y90.929 E9.73306
G1 X53.538 Y90.188 E9.75699
G1 X55.092 Y89.603 E9.78091
G1 X56.698 Y89.181 E9.80484
G1 X58.340 Y88.924 E9.82878
G1 X60.000 Y88.840 E9.85272
G1 X61.659 Y88.924 E9.87665
G1 X63.301 Y89.181 E9.90059
G1 X64.907 Y89.603 E9.92452
G1 X66.461 Y90.188 E9.94844
G1 X67.948 Y90.929 E9.97237
G1 X69.351 Y91.821 E9.99632
G1 X69.419 Y91.875 E9.99757
G1 X75.276 Y88.493 E10.09500
G0 F6660 X64.516 Y99.866
G1 F2760 X63.808 Y99.320 E10.10788
G1 X63.034 Y98.871 E10.12077
G1 X62.204 Y98.526 E10.13372
G1 X61.338 Y98.293 E10.14664
G1 X60.451 Y98.176 E10.15953
G1 X59.548 Y98.176 E10.17254
G1 X58.661 Y98.293 E10.18543
G1 X57.795 Y98.526 E10.19834
G1 X56.965 Y98.871 E10.21129
G1 X56.191 Y99.320 E10.22418
G1 X55.483 Y99.866 E10.23706
G1 X54.844 Y100.508 E10.25011
G1 X54.302 Y101.219 E10.26299
G1 X53.853 Y102.000 E10.27597
G1 X53.518 Y102.820 E10.28873
G1 X53.287 Y103.696 E10.30178
G1 X53.174 Y104.587 E10.31472
G1 X53.178 Y105.481 E10.32760
G1 X53.301 Y106.375 E10.34060
G1 X53.536 Y107.232 E10.35340
G1 X53.887 Y108.065 E10.36642
G1 X54.339 Y108.835 E10.37928
G1 X54.896 Y109.551 E10.39235
G1 X55.529 Y110.174 E10.40515
G1 X56.246 Y110.715 E10.41809
G1 X57.027 Y111.157 E10.43101
G1 X57.861 Y111.495 E10.44398
G1 X58.733 Y111.720 E10.45695
G1 X60.000 Y111.874 E10.47534
G1 X61.266 Y111.720 E10.49371
G1 X62.138 Y111.495 E10.50668
G1 X62.972 Y111.157 E10.51965
G1 X63.753 Y110.715 E10.53257
G1 X64.470 Y110.174 E10.54551
G1 X65.103 Y109.551 E10.55831
G1 X65.660 Y108.835 E10.57138
G1 X66.112 Y108.065 E10.58424
G1 X66.463 Y107.232 E10.59726
G1 X66.698 Y106.375 E10.61006
G1 X66.821 Y105.481 E10.62306
G1 X66.825 Y104.587 E10.63594
G1 X66.712 Y103.696 E10.64888
G1 X66.481 Y102.820 E10.66193
G1 X66.146 Y102.000 E10.67469
G1 X65.697 Y101.219 E10.68767
G1 X65.155 Y100.508 E10.70055
G1 X64.516 Y99.866 E10.71360
G0 F6660 X64.314 Y100.109
G1 F2760 X63.629 Y99.581 E10.72606
G1 X62.892 Y99.154 E10.73833
G1 X62.100 Y98.824 E10.75069
G1 X61.282 Y98.604 E10.76289
G1 X60.425 Y98.491 E10.77534
G1 X59.574 Y98.491 E10.78760
G1 X58.717 Y98.604 E10.80005
G1 X57.899 Y98.824 E10.81226
G1 X57.107 Y99.154 E10.82462
G1 X56.370 Y99.581 E10.83689
G1 X55.685 Y100.109 E10.84935
G1 X55.085 Y100.711 E10.86159
G1 X54.563 Y101.397 E10.87401
G1 X54.140 Y102.134 E10.88625
G1 X53.814 Y102.930 E10.89864
G1 X53.597 Y103.755 E10.91093
G1 X53.489 Y104.602 E10.92323
G1 X53.493 Y105.459 E10.93558
G1 X53.610 Y106.310 E10.94795
G1 X53.836 Y107.132 E10.96023
G1 X54.169 Y107.924 E10.97261
G1 X54.601 Y108.661 E10.98492
G1 X55.129 Y109.339 E10.99729
G1 X55.733 Y109.934 E11.00951
G1 X56.420 Y110.452 E11.02190
G1 X57.163 Y110.872 E11.03420
G1 X57.959 Y111.195 E11.04657
G1 X58.790 Y111.409 E11.05894
G1 X60.000 Y111.557 E11.07650
G1 X61.209 Y111.409 E11.09404
G1 X62.040 Y111.195 E11.10640
G1 X62.836 Y110.872 E11.11878
G1 X63.579 Y110.452 E11.13108
G1 X64.266 Y109.934 E11.14347
G1 X64.870 Y109.339 E11.15568
G1 X65.398 Y108.661 E11.16806
G1 X65.830 Y107.924 E11.18037
G1 X66.163 Y107.132 E11.19275
G1 X66.389 Y106.310 E11.20503
G1 X66.506 Y105.459 E11.21740
G1 X66.510 Y104.602 E11.22975
G1 X66.402 Y103.755 E11.24205
G1 X66.185 Y102.930 E11.25434
G1 X65.859 Y102.134 E11.26673
G1 X65.436 Y101.397 E11.27897
G1 X64.914 Y100.711 E11.29139
G1 X64.314 Y100.109 E11.30363
G0 F6660 X61.843 Y149.521
G1 F2760 X118.627 Y27.843 E13.23798
G1 X127.490 Y27.843 E13.36566
G1 X127.490 Y40.478 E13.54768
G1 X76.157 Y150.479 E15.29638
G1 X76.157 Y162.157 E15.46461
G1 X61.843 Y162.157 E15.67082
G1 X61.843 Y149.521 E15.85285
G0 F6660 X61.528 Y149.451
G1 F2760 X118.426 Y27.528 E17.79109
G1 X127.805 Y27.528 E17.92620
G1 X127.805 Y40.548 E18.11377
G1 X76.472 Y150.548 E19.86246
G1 X76.472 Y162.472 E20.03423
G1 X61.528 Y162.472 E20.24951
G1 X61.528 Y149.451 E20.43709
G0 F6660 X81.528 Y149.451
G1 F2760 X138.426 Y27.528 E22.37533
G1 X147.805 Y27.528 E22.51044
G1 X147.805 Y40.548 E22.69801
G1 X96.472 Y150.548 E24.44670
G1 X96.472 Y162.472 E24.61847
G1 X81.528 Y162.472 E24.83375
G1 X81.528 Y149.451 E25.02133
G0 F6660 X81.843 Y149.521
G1 F2760 X138.627 Y27.843 E26.95568
G1 X147.490 Y27.843 E27.08336
G1 X147.490 Y40.478 E27.26538
G1 X96.157 Y150.479 E29.01408
G1 X96.157 Y162.157 E29.18231
G1 X81.843 Y162.157 E29.38852
G1 X81.843 Y149.521 E29.57055
G0 F6660 X101.528 Y149.451
G1 F2760 X158.426 Y27.528 E31.50879
G1 X167.805 Y27.528 E31.64390
G1 X167.805 Y40.548 E31.83147
G1 X116.472 Y150.548 E33.58016
G1 X116.472 Y162.472 E33.75193
G1 X101.528 Y162.472 E33.96721
G1 X101.528 Y149.451 E34.15479
G0 F6660 X101.843 Y149.521
G1 F2760 X158.627 Y27.843 E36.08914
G1 X167.490 Y27.843 E36.21682
G1 X167.490 Y40.478 E36.39883
G1 X116.157 Y150.479 E38.14754
G1 X116.157 Y162.157 E38.31577
G1 X101.843 Y162.157 E38.52198
G1 X101.843 Y149.521 E38.70401
G1 F2400 E38.50401
G0 F6660 X83.398 Y80.631
;TYPE:WALL-INNER
G1 F2400 E38.70401
G1 F2760 X83.102 Y80.684 E38.70834
G1 X83.102 Y72.898 E38.82050
G1 X81.604 Y72.898 E38.84208
G1 X81.603 Y69.962 E38.88438
G1 X81.877 Y69.928 E38.88836
G1 X83.161 Y69.597 E38.90746
G1 X84.390 Y69.100 E38.92656
G1 X85.544 Y68.446 E38.94566
G1 X86.603 Y67.648 E38.96477
G1 X87.547 Y66.717 E38.98387
G1 X88.362 Y65.671 E39.00297
G1 X89.032 Y64.528 E39.02205
G1 X89.548 Y63.305 E39.04118
G1 X89.898 Y62.027 E39.06027
G1 X90.079 Y60.713 E39.07937
G1 X90.085 Y59.387 E39.09848
G1 X89.918 Y58.072 E39.11757
G1 X89.580 Y56.791 E39.13666
G1 X89.078 Y55.563 E39.15577
G1 X88.418 Y54.412 E39.17488
G1 X87.614 Y53.358 E39.19398
G1 X86.679 Y52.418 E39.21308
G1 X85.629 Y51.609 E39.23217
G1 X84.482 Y50.944 E39.25127
